X:1
T:Piano Sonata Op.110
T:SONATE für das Pianoforte 
T:L.v.Beethoven, Op110.
C:L.v.Beethoven
%%score { ( 1 3 5 ) | ( 2 4 ) }
L:1/8
Q:1/4=56
M:3/4
K:Ab
V:1 treble nm="Piano" snm="Pno."
V:3 treble 
V:5 treble 
V:2 bass 
V:4 bass 
V:1
"^Moderato cantabile molto espressivo."!p! ([Ac]3 [EA]) [EA]>[EA] | [Gd]2 [GB]4 | %2
!<(! (e3 d)(.e.f)!<)! | %3
!p! (e>!<(!=d)!<)![Q:1/4=26] !fermata!T_d-[Q:1/4=20][Q:1/4=40] d/4[Q:1/4=50]c/4d/4e/4[Q:1/4=64]!>(!{de} f[Q:1/4=50]e/d/!>)! | %4
[Q:1/4=64]!p! (c3 e2 a) | (a2 g4) | (b3 g2 e) | (e2 a4) |"_cresc." (a3 c'2 e') | %9
 (e'3 d') (.e'.f') |!>(! (f' e'2 d'/c'/ e'/d'/)!mp!g!>)! | %11
!p! .a/4e'/4c'/4e'/4.a'/4e'/4c'/4e'/4 .a/4e/4c/4e/4.A/4E/4C/4E/4[I:staff +1] .A,/4E,/4C,/4E,/4.A,,/4E,/4C,/4E,/4 | %12
 .G,,/4E,/4D,/4E,/4.G,/4E,/4D,/4E,/4 .G,/4[I:staff -1]E/4D/4E/4.G/4E/4D/4E/4 .G/4e/4d/4e/4.g/4e/4d/4e/4 | %13
 .a/4e'/4c'/4e'/4.a'/4e'/4c'/4e'/4 .a/4e/4c/4e/4.A/4E/4C/4E/4[I:staff +1] .A,/4E,/4C,/4E,/4.A,,/4E,/4C,/4E,/4 | %14
 .B,,/4E,/4D,/4E,/4.B,/4E,/4D,/4E,/4 .B,/4[I:staff -1]E/4D/4E/4.B/4E/4D/4E/4 .B/4e/4d/4e/4.b/4e/4d/4e/4 | %15
 .c/4a/4e/4a/4.c'/4a/4e/4a/4 .c/4A/4E/4A/4[I:staff +1].C/4A,/4E,/4A,/4 .C,/4A,/4E,/4A,/4.C/4A,/4E,/4A,/4 | %16
"_cresc." =D,/4B,/4A,/4B,/4=D/4B,/4A,/4B,/4[I:staff -1] D/4B/4A/4B/4=d/4B/4A/4B/4 e/4b/4g/4b/4e'/4b/4g/4b/4 | %17
 f/4b/4a/4b/4f'/4b/4a/4b/4 f/4b/4a/4b/4f'/4b/4a/4b/4 g/4e'/4b/4e'/4g'/4e'/4b/4e'/4 | %18
!8va(! a/4a'/4e'/4a'/4 =a/4=a'/4e'/4a'/4 a/4a'/4e'/4a'/4 b/4b'/4e'/4b'/4[Q:1/4=60] b/4b'/4e'/4b'/4!mf![Q:1/4=56] =b/4=b'/4[Q:1/4=52]e'/4[Q:1/4=26]b'/4 | %19
!p![Q:1/4=64] (=c''>c' _b'>_b a'>=a' | b'>b _a'>a g'/g/a/b/)!8va)! | (=d'/c'c/ c'/bB/ b/a=a/) | %22
 (c'/bB/[Q:1/4=62] b/_aA/)[Q:1/4=58]"_cresc." (g/f/)(g/f/) | g2 f2[Q:1/4=56]!mf! (b/=a/)(b/a/) | %24
!p![Q:1/4=64]"_cresc." [Beb]2 c'3 c' | z =d' z e' z f'- | f'.g'.a'.=a' b'2- | %27
!f! b'.G z3/2 (G/ A/)(B/c/)(=d/ | e).B z3/2 (=d/ e/)(f/g/)(a/ | %29
 b).e z3/2!8va(! (e'/[Q:1/4=60] f'/)(g'/[Q:1/4=52]a'/)(b'/ | %30
[Q:1/4=60] c''2)!8va)! z3/2!p! F/ [FB]z/[FB]/ | ([F=A]2 [F_A]2 G/)[Q:1/4=56]"_cresc."(e'/=d'/_d'/ | %32
[Q:1/4=64] c'/4b/4a/4g/4_g/4f/4=e/4_e/4 =d/4_d/4c/4_c/4"_dim."B/4A/4=G/4F/4)!p![Q:1/4=60] [=DB]z/[DB]/ | %33
 (Bc/B/ A/G/F/G/ A2) | [EG]/(B,/C/B,/ A,/G,/F,/G,/ E/C/E/=D/) | (F/=D/F/E/ A/F/A/G/ c/=A/c/B/ | %36
 f/=d/f/e/ _a/f/a/g/ c'/=a/c'/b/) |"_dim." e'6 |!pp! _d'6 |[Q:1/4=64]!pp! (c'3 a) a>a | %40
!p! [=egbd']2 [egb]4 |!p! ([=egb]3 g) g>g | [cfac']2 [cfa]4 |!p! ([fa]3 f) f>f | %44
!<(! [c=egb]2!<)!!p!!>(! [ceg]4!>)! |!p! ([fa]3 f) f>f |!<(! [_d_g]2!<)!!p!!>(! [ce]4!>)! | %47
!p! ([df]3 d) d>d |!<(! [ce_g]2!<)!!p!!>(! [ce]4!>)! |!p! (f3 d) d>d |!<(! e2!<)!!p!!>(! c4!>)! | %51
!p! (d3 B) B>B |!<(! e2!<)!!p!!>(! c4!>)! |!p! ([Bd]3 B) B>B | %54
!<(! [Bd]2!<)!!p![Q:1/4=60]!>(! !trill(!TB3 =B!>)! |!p![Q:1/4=64] [CEc]3 A A>A | d2 [EG_B]4 | %57
 ([EAe]3 [=DA=d]) (.[EAe].[FAf]) |!>(! (e=d) !trill(!T_d3 c/B/!>)! | %59
!p! A/4e/4c/4e/4"_cresc."a/4e'/4c'/4e'/4 a'/4a/4a'/4a/4a'/4a/4a'/4a/4 a'/4a/4a'/4a/4a'/4a/4a'/4a/4 | %60
 a'/4a/4a'/4a/4a'/4a/4a'/4a/4 a'/4a/4a'/4a/4a'/4a/4a'/4a/4 a'/4a/4a'/4a/4a'/4a/4a'/4a/4 | %61
 a'_g'/f'/-!>(! f'/e'/4=d'/4 e'/4f'/4g'/4f'/4 e'/4f'/4e'/4_d'/4 c'/4b/4a/4_g/4!>)! | %62
!p! (f3 a2 d') | (d'2 c'4) | (e'3 c'2"_cresc." a) | (a2 d'3) d'!mp! |"_dim." (^c'2 c'3 c') | %67
 (^c'2 =b3) b ||[K:E] (ba-)!pp! (a/4b/4a/4g/4a/b/ a/4b/4c'/b/a/) | %69
!p! g/4e'/4b/4e'/4g'/4e'/4b/4e'/4 z G/4E/4B,/4E/4 z[K:bass] G,,/4E,/4B,,/4E,/4 | %70
 D,,/4B,,/4A,,/4B,,/4D,/4B,,/4A,,/4B,,/4 D,/4B,/4A,/4B,/4D/4B,/4A,/4B,/4[K:treble] D/4B/4A/4B/4d/4B/4A/4B/4 | %71
 e/4b/4g/4b/4e'/4b/4g/4b/4 e/4B/4G/4B/4E/4[I:staff +1]B,/4G,/4B,/4 E,/4B,/4G,/4B,/4[I:staff -1]E/4[I:staff +1]B,/4G,/4B,/4 | %72
[I:staff -1] F,/4B,/4A,/4B,/4F/4B,/4A,/4B,/4 F/4B/4A/4B/4f/4B/4A/4B/4 f/4b/4a/4b/4f'/4b/4a/4b/4 | %73
!<(!"_cresc." g/4g'/4b/4g'/4 g/4g'/4b/4g'/4 g/4g'/4b/4g'/4 a/4a'/4e'/4a'/4 a/4a'/4e'/4a'/4 ^a/4^a'/4e'/4a'/4 | %74
!8va(! ^a/4^a'/4e'/4a'/4 b/4b'/4e'/4b'/4 b/4b'/4e'/4b'/4 ^b/4^b'/4e'/4b'/4!8va)![Q:1/4=60] ^B/4^b/4e/4b/4[Q:1/4=52]!mf! ^c/4^c'/4e/4[Q:1/4=26]c'/4!<)! | %75
!p![Q:1/4=64] (c'>c =b>=B a>^a) | (b>B =a>A[Q:1/4=58] [^G^g][=G=g]) || %77
[K:Ab]"_cresc." ([Gg]3 [Aa])[Q:1/4=56] ([Bb]/[cc']/)[Q:1/4=52]!mp!(.[dd']/.[ee']/) | %78
[Q:1/4=64]!p!"^a tempo." (f'>f e'>e d'>=d' | e'>e _d'>d c'/c/d/e/) | %80
 (g/=e/f/F/ f/=d/_e/_E/ e/c/_d/D/) | (f/=d/e/E/ e/c/_d/"_cresc."D/)[Q:1/4=58] (c/B/)(c/B/) | %82
 c2 B2[Q:1/4=56] (e/=d/)(e/d/) |[Q:1/4=64] [EBe]2 f3 f | z g z a z b- | b.c'.d'.=d' e'2- | %86
!f! e'.C z3/2 (C/ D/)(E/F/)(G/ | .A).E z3/2 (G/ A/)(B/c/)(d/ | %88
 .e).A z3/2 (a/[Q:1/4=60] b/)(c'/[Q:1/4=52]d'/)(e'/ |[Q:1/4=60] f'2) z3/2!p! [FB]/ [Ge]z/[Ge]/ | %90
 ([_c=d]2 [_F_d]2"_cresc." [E=c]/)[Q:1/4=56](a'/g'/_g'/ | %91
[Q:1/4=64] f'/4e'/4d'/4c'/4_c'/4b/4=a/4_a/4!mp! =g/4_g/4f/4"_dim."=e/4 _e/4_d/4c/4B/4)!p![Q:1/4=60] [Be]z/[Ge]/ | %92
 (ef/e/ d/c/B/c/ d2)[Q:1/4=56] | [Ac]/[Q:1/4=60] (E/F/E/ D/C/B,/C/ A/F/A/G/ | %94
[Q:1/4=62] B/G/B/A/ d/=B/d/c/ f/=d/f/e/ | _b/g/b/a/ _d'/=b/d'/c'/ f'/=d'/f'/e'/) | %96
[Q:1/4=64]!8va(! (e'/"_cresc."c'/e'/=d'/ c''/=a'/c''/b'/ e'/c'/e'/d'/ | %97
 f'/=d'/f'/e'/ c''/=a'/c''/b'/ f'/d'/f'/e'/) | %98
 (e'/c'/e'/=d'/ c''/=a'/c''/b'/[Q:1/4=60] e'/c'/e'/d'/ |[Q:1/4=58]"_dim." f'/=d'/f'/e'/) ([gf']4- | %100
 [gf'][ae'])!8va)!!p![Q:1/4=60] ([Ae]4- | [Ae][B_d])"_dim." ([Bd]4- | [Bd][Ac])!pp! ([Ac]4- | %103
 [Ac][Ge]) [Ge]4 | %104
[Q:1/4=64]!p! .A/4e/4c/4e/4 .a/4e/4c/4e/4 .A/4E/4C/4E/4[K:bass] .A,/4E,/4C,/4E,/4 .A,,/4E,,/4C,,/4E,,/4 z | %105
 .G,,/4E,/4D,/4E,/4 .G,/4E,/4D,/4E,/4 .G,/4[K:treble]E/4D/4E/4 .G/4E/4D/4E/4 .G/4e/4d/4e/4 .g/4e/4d/4e/4 | %106
 .a/4e'/4c'/4e'/4 .a'/4e'/4c'/4e'/4 .a/4e/4c/4e/4 .A/4E/4C/4E/4[K:bass] .A,/4E,/4C,/4E,/4 .A,,/4E,/4C,/4E,/4 | %107
[K:treble][I:staff +1] .B,,/4E,/4D,/4E,/4 .B,/4E,/4D,/4E,/4[I:staff -1] .B,/4E/4D/4E/4 .B/4E/4D/4E/4 .B/4e/4d/4e/4 .b/4e/4d/4e/4 | %108
"_cresc." c/4e/4c/4e/4 a/4e/4c/4e/4 d/4a/4d/4a/4 d'/4a/4f/4a/4 e/4e'/4a/4e'/4 =e/4=e'/4a/4e'/4 | %109
!<(! f/4f'/4f/4a/4 f'/4d'/4a/4d'/4 g/4_e'/4d'/4e'/4 g'/4e'/4d'/4e'/4[Q:1/4=60] g/4g'/4e'/4g'/4!<)![Q:1/4=56]!f! a/4a'/4e'/4[Q:1/4=26]a'/4 | %110
!p![Q:1/4=56] f2- (f/B/c/d/ G_e- | %111
"_cresc." e/d/c/c'/ b/g/[Q:1/4=54]b/a/[Q:1/4=52] c'/a/!mp![Q:1/4=50]e/=e/) | %112
!p![Q:1/4=56] f2- (f/B/c/d/[Q:1/4=50] G_e) |"_cresc."!<(! ([Ac]2!mp! d3)[Q:1/4=40]!mf! [Gd]!<)! | %114
!f!!>(! [Gd]4!>)!!p! [Ac] z |[Q:1/4=30] [Ac] z z2 z2 |] %116
[M:2/4]"^Allegro molto."[Q:1/2=126]!p! ([Ac]2 [=EB]2 | [FA]2 [D=EG]2) | .[A,=DF]2 .[A,DF]2 | %119
 [G,=E]4 |!f! ([c=eg]2 [Gce]2) | .[=EGc]2 .[EGc]2 | .[=EGc]2 .[G=B=d]2 | [Gc=e]4 :| .g2 .g2 |: %125
 (g2 a2) | .a2 .a2 | a2- b2 | .b2 .b2 | ([gb]2 [ac']2) | .[b_d']2 .[gb]2 | a4 |!p! A2 (A2 | %133
 GF E2) | [Ac]2 ([Ac]2 | [GB][FA] [EG]2) | [ce]2 ([ce]2 | [Bd]2 [Ac]2 | [GB]2 [Ac]2 | %139
 [GB]2 [Gc]2) | F2 (F2 | =E=D C2) | [FA]2 ([FA]2 | [=EG][=DF] [CE]2) | [Ac]2 ([Ac]2 | [GB]2 [FA]2 | %146
[Q:1/2=114] [=EG]2 [FA]2 | [=EG]4) |[Q:1/2=108] c2 c2 |[Q:1/2=92] (=d2 g2) | %150
[Q:1/2=80] (.f2[Q:1/2=30] .=e2) |[Q:1/2=126]!ff!"^a tempo." ([Af]2 [_dg]2) | z4 | z4 | %154
 .[cfa]2 .[cgc']2 |1 .f2 [=eg]2- | [eg]2 .[=dg]2 :|2 .f2 (f'2- ||[K:Db] f'c'e'd' |!p! ac'b=g | %160
 bfa_g | egfd | g=dfe | =B_dcA | _BGBA) | F2 (f'2- | f'c'e'd' |!p! ac'b=g | bfa_g | egfd | fced | %171
 Ad_cA | _cAc=A) |!ff! B2 (b'2- | b'f'a'g' |!p! d'f'e'=c' | e'bd'_c' | a_c'bg | _c'=gba | =e_gfd | %180
 _e_ced) | B2 (b'2- | b'f'a'g' |!p! d'f'e'=c' | e'bd'_c' | a_c'bg | b=gba | fa_ge | =dA_cB) | %189
!ff! G2 g'2- | (g'=d'f'e') | .g2 [ge'g']2 | .f2 ([f_d'f']2 |!f! (f')=c'e'd' |!p! ac'b=g | bfa_g | %196
 egfd | g=dfe | =B_dc_A | _B_GBA) |!p! F2 f2- |"_dim." (fced | AcB=G | BFA_G | EGFD | G=DFE | %206
 =B,_DCA, |[K:bass] _B,G,B,A, |!pp! E,G,F,D,) |[Q:1/2=120] z4 |[K:treble] (FC ED) | z4 | %212
 (fc e[Q:1/2=20]!fermata!d) ||[K:Ab]!p![Q:1/2=126] ([Ac]2 [=EB]2 | [FA]2 [D=EG]2) | %215
 .[A,=DF]2 .[A,DF]2 | [G,=E]4 |!f! ([c=eg]2 [Gce]2) | .[=EGc]2 .[EGc]2 | .[=EGc]2 .[G=B=d]2 | %220
 [Gc=e]4 |!p![Q:1/2=120] ([Ac]2 [=EB]2 |[Q:1/2=114] [FA]2 [D=EG]2) |[Q:1/2=90] .[A,=DF]2 .[A,DF]2 | %224
[Q:1/2=60] [G,=E]4 |!f![Q:1/2=126]"^a tempo." ([c=eg]2 [Gce]2) | .[=EGc]2 .[EGc]2 | %227
 .[=EGc]2 .[G=B=d]2 | [Gc=e]4 ||!f! .g2 .g2 |: (g2 a2) | .a2 .a2 | (a2- b2) | .b2 .b2 | %234
 ([gb]2 [ac']2) | .[b_d']2 .[gb]2 | a4 |!p! A2 (A2 | GF E2) | [Ac]2 ([Ac]2 | [GB][FA] [EG]2) | %241
 [ce]2 ([ce]2 | [Bd]2 [Ac]2 | [GB]2 [Ac]2 | [GB]2 [Gc]2) | F2 (F2 | =E=D C2) | [FA]2 ([FA]2 | %248
 [=EG][=DF] [CE]2) | [Ac]2 ([Ac]2 | [GB]2 [FA]2 |[Q:1/2=114] [=EG]2 [FA]2 | [=EG]4) | %253
[Q:1/2=108] c2 c2 |[Q:1/2=92] (=d2 g2) |[Q:1/2=80] (.f2[Q:1/2=30] .=e2) | %256
!ff!"^a tempo."[Q:1/2=126] ([Af]2 [_dg]2) | z4 | z4 | .[cfa]2 .[cgc']2 |1 .f2 [=eg]2- | %261
 [eg]2 .[=dg]2 :|2 [Acf]2 z2 ||"^coda."!f! [Acf]4 | z4 | [Gcg]4 | z4 | [Acfa]4 | z4 | [dfbd']4 | %270
 z4 |"_dim." [cfac']4 | z4 |[Q:1/2=92] [c=egc']4 |!p![Q:1/2=70] [cf=ac']4- | [cfac']4- | %276
[Q:1/2=60] [cfac']4- |[Q:1/2=50] !fermata![cfac']4[Q:1/2=10] |] %278
[K:Db][M:4/4]"^Adagio, ma non troppo."[Q:1/4=30] [df]7/4[df]/4 ([eg][CEG=A]) [DFB]([=df] _ag) | %279
 g2 a2 [_C_D]2 [B,D_F]2 | E2 [A,B,_F]_f z [A,B,] z [=G,B,E] | %281
"^Recitativo." z (6:4:6(=G,/4B,/4D/4E/4=G/4B/4)"^più adagio." d2- d>B AG-[Q:1/4=22] G/B/4d/4 _f/4e/B/4 d/_c/"^Andante."[Q:1/4=30]"_cresc." [A,_C][_F,__B,][E,_G,B,] | %282
"^Adagio."[Q:1/4=60] x/[Q:1/4=26] =a3/2[Q:1/4=38] (a/!<(!a/) (a/a/)[Q:1/4=30] (a3/4 a/4)[Q:1/4=40] (a/a/) (a/a/)"_tutte le corde"[Q:1/4=45] (a/a/) (a/a/)[Q:1/4=50] (a/a/)!<)! | %283
[K:E]!>(!"_dim." (a/a/)[Q:1/4=55] (a/a/) (a/a/)[Q:1/4=60] (a/a/) (a/!>)!a/-)"_una corda"[Q:1/4=44] a"^cantabile"^f^dA ((^cB).A) | %284
"^Meno adagio."[Q:1/4=34] ^G e2 =G |[K:Gb]"^Adagio""^ten."[Q:1/4=32]!>(! c2 (.B.A) =G3/2 A/!>)! | %286
 A E |[M:12/16]"^Adagio, ma non troppo."[Q:3/16=44]!p! E/E/E/ E/E/E/ | %288
"_cresc." [CE]/[CE]/[CE]/ [CE]/[CE]/[CE]/ [A,CE]/[A,CE]/[A,CE]/"_dim." [A,CE]/[A,CE]/[A,CE]/ | %289
!p!"^(Klagender Gesang)""^Arioso dolente." (e3/2- ed/- dc/ B/c/A/) | A3/2=G3/2- (G_f/- fe/) | %291
!<(! (ea/- a_g/-) (g_f/ ed/)!<)! | %292
!p! c3/2- (c/d/[Q:3/16=30]e/4d/8c/8)[Q:3/16=44]!<(! B3/2-!<)!!>(! B/c/d/!>)! |!p!"_cresc." (c3 d3 | %294
 e3 _f3/2a3/2 | gc'/ aa'/- a'!>(!g'/-[Q:3/16=42] g'/e'/[Q:3/16=40]_f'/4b/4)!>)! | %296
[Q:3/16=44]!p! (d'3 c'3/2) e3/2- | (e3/2__B3/2A3/2 ge/) | (g3/2_f3/2-"_cresc." f3/2e3/2-) | %299
 (ed/- dc/-) (c"^"_B/-[Q:3/16=40]!>(! (B/c/)A/)!>)! |!p![Q:3/16=44] (A3 =G3/2E3/2) | %301
!<(! (A3!<)!!>(! =G3)!>)! |!<(! (c3!<)!!>(! B3/2=c3/2!>)! |!p! d3/2-) d/(.e/._f/) (fe/- e=G/) | %304
 (B3 A3/2)"_dim." (C3/2 | B,3/2E3/2A,) z/ A,/ z/ z/ |[Q:3/16=30] !fermata!A,3 | %307
[K:Ab][M:6/8]"^Fuga.""^Allegro, ma non troppo"[Q:3/8=80] z2 z | z6 | z6 | z6 | z6 | z6 | z6 | z6 | %315
 z6 | z6 | z2 z!p! (A3 | d3 B3 | e3 c3 | f3 e2 _d) | c3 e3- | e3 d2 c | B3 d3- | d3 c2 B | %325
"_cresc." A2 B G2 A | !trill(!TF2 !trill)!E/F/-!f! FE_D | CDB, A,B,C | DEC B,CD | EGA- ABc- | %330
 c=AB EFG | _AFG- GAB- | BGA- ABA- | AF_G- GAG- | G=EF- F=D_E | =GAF EFG | AB_G F=G=A | %337
 B2 _A GAB- | B3 A3- | A3 G3- | (GAG F=EF | GAF- F=D=E) | F_G_E _DCD- | DCB, E3 | A3 F3 | B3 =G3 | %346
 c3 B2 A |!p!!<(!"_cresc." G3 _d3- | d3 c2 B | =A3!mf! e3- | e3 =d2 c | =B2 z!<)!!f! _a3- | %352
!>(! a3 g2 f!>)! |!p! e3 f2 =d | e3 =d3- | dec- c=de- | efe =def | g2 z z2 z | z6 | abg- g=ab- | %360
 bc'b =abc' | _d'2 z f3- | f3!p! =A2 c | B2 d c2 e | d2 f!f! e3- | e6 | e3!p! G2 B | A2 c B2 d | %368
 cde f2 z | z z B,- B,A,C- | CDE- ED=D | E_GF EFC | D2 A, A3 | _d3 B3 | e3 c3 | f3 e2 d | %376
 c2 e d2 c | B2 d c2 B | A2 c B2 A |!p!"_cresc."!<(! GcB ABc- | cBA GAB- | BA_G G2 G- | %382
 G2 F-!<)!!f! (FED | D=B,C-) (CDE- | ECD-)!f! DB,E- | E=DC DEF- |!>(! F E2!>)!!p! A3 | d3 B3 | %388
 e2 c f2 d | g2 e!f![Q:3/8=78] (agf-) | (fe).d[Q:3/8=76] (cd).B | %391
[Q:3/8=60]!ff! !trill(!T[GB]3{=AB}[Q:3/8=80]!ff! [GBd]"_dim."BG | DB,G, z2 z | %393
[Q:3/8=76] z2 z[I:staff +1] D,G,B, |[Q:3/8=72][I:staff -1] DG[Q:3/8=60]B!p! [DGBd]3- | [DGBd]3 | %396
[M:12/16]"^L'istesso tempo di Arioso."[Q:3/16=44] [=DGB=d]/[Q:3/16=58]B/G/ =D/B,/G,/ | %397
 z z/ z/!p![Q:3/16=52]"^cresc." [=D,G,=D]/[D,G,D]/ [D,G,D]/!p![D,G,B,D]/[D,G,B,D]/[Q:3/16=48]"^dim." [D,G,B,D]/[D,G,B,D]/!p![D,G,B,D]/ || %398
[K:Bb][Q:3/16=44]"^(Ermattet,klagend.)""^Perdendo le forze,dolente."!p!{/D} d3/2- dc/ (c/B/) z/4 A/4 (A/B/) z/4 G/4 | %399
!<(! (G^F/- Fe/) z/!mp! (e/f/4e/4)!<)!"_dim." z/ (d/e/4d/4) | %400
!p!"_cresc." (dg/-) g/(g/f/) z/ (f/e/) z/ (d/c/) | %401
 (c/B/!mp!c/4d/4)[Q:3/16=42]"_dim." z/ (d/[Q:3/16=40]c/4B/4)!p![Q:3/16=44] (B3/2A3/2) | %402
"_cresc."!<(! (B3/2- B/A/.B/4) z/4 (c3/2- c/=B/.c/4) z/4 | %403
 (d3/2- d/^c/d/4) z/4 z/ (d/e/) z/ (^f/g/) | %404
 z/ (g/4f/4b/-) (b/[Q:3/16=42]a/4g/4g'/-)!<)! g'/!mp!(f'/d/) z3/4!pp! (f/4e/4A/4) | %405
[Q:3/16=44]{/A} (=c3 B3/2d3/2) | d"_cresc."!<(!d/ z/ z/ _A/- (AG/ fd/)!<)! | %407
!p!{/d} (f"_cresc."e/)!p!!<(! e3/2- e/(e/e/) z/ (d/d/)!<)! | %408
!mp! z/ (c/"_dim."!>(!c/) z/ (B/B/) z/ (_A/A/) z/ (G/G/)!>)! | %409
!p!!<(! (GB/- B/!<)!!p!A/!>(!G/-) (G!>)!^F/)!p! z/ z/ D/ | %410
!<(! G3/2-"_cresc." G(G/ ^F/)z/F/ z/ z/ (D/ | B3/2-) B(B/ A/)z/A/ z/ z/!<)!!mp! =B/ | %412
 z/"_dim." z/ (=B/4c/4) z/ z/ (f/4e/4) z/ z/[Q:3/16=42] (e/4d/4) z/ z/[Q:3/16=40] (G/4^F/4) | %413
"^una corda" z/ z/ (^F/ A3/2)[Q:3/16=38][Q:3/16=44] G z/ z/ z/[I:staff +1] B,/ | %414
[I:staff -1] z/ z/[I:staff +1] A,/[I:staff -1] z/ z/[I:staff +1] D/!<(![I:staff -1] z/ z/[I:staff +1] [G,=B,]/[I:staff -1] z/ z/[I:staff +1] [D,G,B,]/ | %415
"_cresc."[I:staff -1] z/ z/[I:staff +1] [D,G,=B,]/[I:staff -1] z/ z/[I:staff +1] [D,G,B,]/ | %416
[I:staff -1] z/ z/[I:staff +1] [D,G,=B,]/[I:staff -1] z/ z/[I:staff +1] [D,G,B,]/ | %417
[I:staff -1] z/ z/[I:staff +1] [D,G,=B,D]/[I:staff -1] z/ z/[I:staff +1] [D,G,B,D]/[I:staff -1] z/ z/[I:staff +1] [D,G,B,D]/[I:staff -1] z/ z/!<)!!f![I:staff +1] [D,G,B,D]/ | %418
[I:staff -1] z"_dim." z/ z z/ z z/ z (G,/ | =B,D/ G=B/) | %420
[K:G][M:6/8]"^(Nach und nach wieder auflebend.)""^Poi a poi di nuovo vivente.""^L'istesso tempo della Fuga."[Q:3/8=80]!p! x2 x | %421
 x6 | x6 | x6 | z2 z (g3 | d3 f3 | ^c3 e3 | A3 B2 ^c | d=cB A2 B | cBA- AGA | BAG- G3 | %431
 ABA B2 =c- | cBd) (g3 | d3 =f3 | c2 d _e3 | A2 d- d2 c | =B2) z z z G- ||[K:Bb] (G3 c3- | c3 A3- | %439
 A3 d3- | d3 B3- | B3) e3- | e3 d3- | d3 c3- | c2 =B"_cresc." cfd | g=e_a- a/g/f_A- | %446
 A_A=A- A/G/^F (=a- | a^fb- b/a/g)!mf! D- | D=B,G- G/=F/E_B- | BGe- e/_d/c z | z2 B- Be z | %451
 z2 _A- A=d z | z2"^Meno allegro.Etwas langsamer."[Q:3/8=54]!p! E/_A/ G/c/B/4A/4G/ z | %453
 _A z z z2 e/_a/ | g/c'/b/4_a/4g/ z"^m.d." _g/e'/c'/f'/e'/4_d'/4c'/ | %455
"_m.d."[I:staff +1] C/F,/B,/F,/=A,/4=G,/4F,/[I:staff -1] f/c'/b/e'/_d'/4c'/4b/ | %456
[I:staff +1] B,/E,/_A,/E,/G,/4F,/4E,/[Q:3/8=56]!p![I:staff -1] e/b/"_cresc."_a/_d'/c'/4b/4a/ | %457
[Q:3/8=58][I:staff +1] _A,/_D,/_G,/D,/F,/4E,/4D,/[Q:3/8=60] E/B,/_D/B,/C/4B,/4_A,/ || %458
[K:Ab][Q:3/8=64]!mf![I:staff -1] g/=d/f/_d/f/4e/4d/"_m.d."[Q:3/8=80] c z2 | %459
 A,/_G/A,/=E/A,/F/ D/F/D/c/D/B/ | B,/A/B,/^F/B,/G/ _E/G/E/B/E/A/ | =D/A/G/B/_D/A/ C/A/B,/A/=F/G/ | %462
 E/A/E/B/E/c/!f! B/e/B/d/c/d/ | B/d/=B/d/B/c/ c/a/c/_b/c/a/ | =d/g/d/=e/d/f/ _e/b/e/c'/e/b/ | %465
 e/b/e/g/e/a/ =d/a/d/b/d/c'/ | e/c'/e/=a/_d/b/ d/_a/d/f/d/g/ | d/g/d/e/d/f/ d/g/c/a/c/b/ | %468
 d/b/a/d'/b/e'/ a3 | [gd']3 [gb]3 | e'3 c'3 | f'3 e'2 _d' | c'3 a3- | a3 g2 f | e3 c'3- | %475
 c'3 b2 _a | g3 f'3- | f'3 e'2 d' | c'3 a'3- | a'3 [a=d'g']2 [ad'f'] | [ac'e']3 [abf']2 [fab] | %481
 [ac']3 b2 e' | [a=d']3 [b_d']3 | c'3 d'2 b | c' b2 a3 | d'3 b3 | e'3 c'3 | f'3 =d'3 | %488
 _g'3 f'2 e' | f'6 |!8va(! _a'3 _g'2 f' |!ff! [b_d'_f'=g']6 | [g'b']3[Q:3/8=76] a'2[Q:3/8=72] g' | %493
!ff![Q:3/8=68] [c'e'a'c'']/a'/[Q:3/8=80]e'/a'/e'/c'/ e'/c'/a/c'/a/e/!8va)! | %494
 z2 z[I:staff +1] A,/E,/C,/E,/C,/A,,/ | %495
[I:staff -1] z z/[I:staff +1] A,,/C,/E,/[I:staff -1] z z/[I:staff +1] A,/C/[I:staff -1]E/ | %496
 z z/ A/c/e/ z z/ a/c'/e'/ |[Q:3/8=40] [ac'e'a']2 z |] %498
V:2
"^con amabilità""^(sanft)"!ped! [A,,E,]3 [C,E,] [C,E,]>[C,E,]!ped-up! | %1
!ped! [B,,E,]2 [D,E,]4!ped-up! |!<(!!ped! (E,A,CB,)!ped-up!!ped!C!ped-up!!ped!D!<)!!ped-up! | %3
!ped! B,2!ped-up!!ped! B, z!ped-up! z2 | %4
[K:treble]!ped! A,/[CE]/[CE]/[CE]/ A,/[CE]/[CE]/[CE]/ A,/[CE]/[CE]/[CE]/!ped-up! | %5
!ped! B,/[DE]/[DE]/[DE]/ B,/[DE]/[DE]/[DE]/ B,/[DE]/[DE]/[DE]/!ped-up! | %6
!ped! D/[EGB]/[EGB]/[EGB]/ D/[EGB]/[EGB]/[EGB]/ D/[EGB]/[EGB]/[EGB]/!ped-up! | %7
!ped! C/[EA]/[EA]/[EA]/ C/[EA]/[EA]/[EA]/ C/[EA]/[EA]/[EA]/!ped-up! | %8
!ped! _G/[Ace]/[Ace]/[Ace]/ G/[Ace]/[Ace]/[Ace]/ G/[Ace]/[Ace]/[Ace]/!ped-up! | %9
!ped! F/[Ad]/[Ad]/[Ad]/ F/[Ad]/[Ad]/[Ad]/!ped-up!!ped! E/[Ac]/!ped-up!!ped!D/[AB]/!ped-up! | %10
!ped! E/[Ac]/[Ac]/[Ac]/ E/[Ac]/[Ac]/[Ac]/!ped-up!!ped! E/[Bd]/[Bd]/[Bd]/!ped-up! | %11
"^leggiermente"!ped! [Ac] z!ped-up!!ped! z2!ped-up![K:bass]!ped! z2!ped-up! | %12
!ped! [B,,,E,,B,,] z!ped-up!!ped! [B,,,E,,B,,] z!ped-up!!ped! [B,,,E,,B,,] z!ped-up! | %13
!ped! [C,,E,,C,] z!ped-up!!ped! z2!ped-up!!ped! z2!ped-up! | %14
!ped! [G,,,E,,G,,] z!ped-up!!ped! [G,,,E,,G,,] z!ped-up!!ped! [G,,,E,,G,,] z!ped-up! | %15
!ped! [A,,,E,,A,,] z!ped-up!!ped! z2!ped-up!!ped! z2!ped-up! | %16
!ped! [F,,,F,,] z!ped-up!!ped! [F,,B,,F,] z!ped-up!!ped! [E,,B,,E,] z!ped-up! | %17
!ped! [=D,,B,,=D,] z!ped-up!!ped! [D,B,=D] z!ped-up!!ped! [_D,E,_D] z!ped-up! | %18
!ped! [C,E,C]!ped-up!!ped![_C,E,_C]!ped-up![K:treble]!ped! [_CE_c]!ped-up!!ped![B,EB]!ped-up!!ped! [_A,E_A]!ped-up!!ped![G,EG]!ped-up! | %19
"^molto legato"!ped! z/ (a<A g<G f/F-!ped-up! |!ped! F/ g<G f/F e/E/F/G/)!ped-up! | %21
!ped! z/ (B/A/A,/)!ped-up!!ped! z/ (A/G/G,/)!ped-up!!ped! z/ (G/F/^F/)!ped-up! | %22
!ped! z/ (_A/G/G,/)!ped-up!!ped! z/[K:bass] (G/=F/F,/)!ped-up!!ped! ([G,E]/[A,=D]/)!ped-up!!ped!([G,E]/[A,D]/)!ped-up! | %23
!ped! [G,E]2!ped-up!!ped! [A,=D]2!ped-up!!ped! ([G,E]/[F,C]/)!ped-up!!ped!([G,E]/[F,C]/)!ped-up! | %24
!ped! [G,B,E]2!ped-up!!ped! !trill(!TF,2!ped-up!!ped! !trill(!TE,2!ped-up! | %25
!ped! !trill(!T=D,2!ped-up!!ped!"^" !trill(!TC,2!ped-up!!ped! !trill(!TB,,2!ped-up! | %26
!ped! !trill(!TA,,4-!ped-up!!ped!!ped-up!!ped!!ped-up!!ped!!ped-up! A,,/!f!G,,/4A,,/4 B,,/4A,,/4G,,/4F,,/4 | %27
!ped! E,,/[E,G,]/[E,G,]/[=D,E,G,]/!ped-up!!ped! [D,E,G,]/[C,E,G,]/[C,E,G,]/[B,,E,G,]/!ped-up!!ped! [B,,E,G,]/[A,,E,G,]/[G,,E,G,]/[G,,E,G,]/!ped-up! | %28
!ped! G,,/[E,G,]/[E,G,]/[=D,E,G,]/!ped-up!!ped! [D,E,G,]/[C,E,G,]/[C,E,G,]/[B,,E,G,]/!ped-up!!ped! [B,,E,G,]/[A,,E,G,]/[G,,E,G,]/[G,,E,G,]/!ped-up! | %29
!ped! G,,/[E,G,]/[E,G,]/[=D,E,G,]/!ped-up!!ped! [D,E,G,]/[C,E,G,]/[C,E,G,]/[B,,E,G,]/!ped-up!!ped! [B,,E,G,]/[A,,E,G,]/[G,,E,G,]/[G,,E,G,]/!ped-up! | %30
 [A,,E,F,]2 z3/2 [=A,,E,F,]/ [B,,=D,F,]z/[B,,D,]/ | %31
!ped! ([C,E,]2!ped-up!!ped! [=D,_C]2!ped-up!!ped! [E,B,]/)!ped-up![K:treble]!ped![EG]/[FA]/[GB]/!ped-up! | %32
!ped! [A=c]!ped-up!!ped! z!ped-up!!ped! z3/2[K:bass] [=A,,E,F,]/!ped-up! [B,,F,]z/[B,,_A,]/ | %33
"^dolce"!ped! G,A,/G,/ F,/E,/=D,/E,/ F,2!ped-up! | %34
!ped! E,/G,,/A,,/G,,/ F,,/E,,/=D,,/E,,/ [B,,,F,,]2!ped-up! | %35
!ped! [E,,G,,]2!ped-up!!ped! [E,,G,,B,,E,]4- | %36
 [E,,G,,B,,E,]2!ped-up!!ped! [E,G,B,E]2!ped-up!!ped! [E,G,B,E]2!ped-up! | %37
!ped! [E,G,B,E]2 (E,,2 E,2)!ped-up! |!ped! (_D,,2 _D,4)!ped-up! | %39
!ped! [C,,C,]/[F,A,]/[F,A,]/[F,A,]/ C,/[F,A,]/[F,A,]/[F,A,]/ C,/[F,A,]/[F,A,]/[F,A,]/!ped-up! | %40
!ped! C,/[G,B,]/[G,B,]/[G,B,]/ C,/[G,B,]/[G,B,]/[G,B,]/ C,/[G,B,]/[G,B,]/[G,B,]/!ped-up! | %41
!ped! C,/[=E,G,]/[E,G,]/[E,G,]/ C,/[E,G,]/[E,G,]/[E,G,]/ C,/[E,G,]/[E,G,]/[E,G,]/!ped-up! | %42
!ped! C,/[F,A,]/[F,A,]/[F,A,]/ C,/[F,A,]/[F,A,]/[F,A,]/ C,/[F,A,]/[F,A,]/!mp![F,A,]/!ped-up! | %43
!ped! F,,/ (C,/=D,/=E,/ F,/G,/A,/B,/!ped-up!!ped! C/A,/G,/F,/)!ped-up! | %44
!ped! C,/ (=B,,,/C,,/B,,,/!ped-up!!ped! C,,/=E,,/G,,/=B,,/ C,/_B,,/A,,/G,,/)!ped-up! | %45
!ped! F,,/ (C,/=D,/=E,/ F,/G,/A,/B,/!ped-up!!ped! C/A,/G,/F,/)!ped-up! | %46
!ped! _E,/ (_E,,/F,,/_G,,/!ped-up!!ped! A,,/=A,,/B,,/_A,,/ G,,/F,,/E,,/A,,/)!ped-up! | %47
!ped! D,,/ (D,/E,/F,/ _G,/A,/B,/A,/!ped-up!!ped! G,/F,/E,/D,/)!ped-up! | %48
!ped! A,,/ (=G,,,/A,,,/G,,,/!ped-up!!ped! A,,,/B,,,/C,,/D,,/!ped-up!!ped! E,,/F,,/_G,,/A,,/)!ped-up! | %49
!ped! D,,/ (=A,,/B,,/A,,/ B,,/C,/D,/E,/!ped-up!!ped! F,/D,/C,/B,,/)!ped-up! | %50
!ped! C,/ (C,,/D,,/E,,/!ped-up!!ped! F,,/_G,,/F,,/E,,/ F,,/!ped-up!!ped!F,,,/=G,,,/=A,,,/)!ped-up! | %51
!ped! B,,,/ (F,,/G,,/=A,,/ B,,/C,/D,/E,/!ped-up!!ped! F,/D,/C,/B,,/)!ped-up! | %52
!ped! C,/ (F,,,/=G,,,/=A,,,/!ped-up!!ped! B,,,/C,,/D,,/E,,/ F,,/E,,/D,,/C,,/)!ped-up! | %53
!ped! B,,,/ (=A,,/B,,/C,/ D,/E,/F,/E,/!ped-up!!ped! D,/C,/B,,/_A,,/)!ped-up! | %54
!ped! G,,/ (=D,,/E,,/F,,/!ped-up!!ped! G,,/A,,/B,,/A,,/ G,,/F,,/!ped-up!!ped!E,,/4_D,,/4C,,/4)_B,,,/4!ped-up! | %55
!ped! .A,,,/4E,,/4C,,/4E,,/4.A,,/4E,/4C,/4E,/4 A,,/4E,/4C,/4E,/4A,/4E,/4C,/4E,/4!ped-up!!ped! C,/4A,/4E,/4A,/4C/4A,/4E,/4A,/4!ped-up! | %56
!ped! B,,/4G,/4E,/4G,/4B,/4G,/4E,/4G,/4!ped-up!!ped! D,/4G,/4E,/4G,/4B,/4G,/4E,/4G,/4 D,/4G,/4E,/4G,/4B,/4G,/4E,/4G,/4!ped-up! | %57
!ped! C,/4A,/4E,/4A,/4C/4A,/4E,/4A,/4 C,/4C/4A,/4C/4!ped-up!!ped!=B,,/4=B,/4A,/4B,/4!ped-up!!ped! C,/4C/4A,/4C/4!ped-up!!ped!_D,/4_D/4A,/4D/4!ped-up! | %58
!ped! E,/4E/4G,/4E/4!ped-up!!ped!F,/4F/4A,/4F/4!ped-up!!ped! G,/4G/4_B,/4G/4E,/4E/4G,/4E/4 F,/4F/4A,/4F/4!ped-up!!ped!G,/4G/4B,/4G/4!ped-up! | %59
!ped! ([CE]3 [A,C]) [A,C]>[A,C]!ped-up! |!ped! [DF]2 [B,D]4!ped-up! | %61
[K:treble]!ped! _G2!ped-up!!ped! E2- [EA]2!ped-up! | %62
"^dolce"!ped! D/[FA]/[FA]/[FA]/ D/[FA]/[FA]/[FA]/ D/[FA]/[FA]/[FA]/!ped-up! | %63
!ped! E/[_GA]/[GA]/[GA]/ E/[GA]/[GA]/[GA]/ E/[GA]/[GA]/[GA]/!ped-up! | %64
!ped! _G/[Ace]/[Ace]/[Ace]/ G/[Ace]/[Ace]/[Ace]/ G/[Ace]/[Ace]/[Ace]/!ped-up! | %65
!ped! F/[Ad]/[Ad]/[Ad]/ F/[Ad]/[Ad]/[Ad]/ F/[Ad]/[Ad]/[Ad]/!ped-up! | %66
!ped! =E/[^G^c]/[Gc]/[Gc]/ E/[Gc]/[Gc]/[Gc]/ E/[Gc]/[Gc]/[Gc]/!ped-up! | %67
"^"!ped! ^D/[^F=B]/[FB]/[FB]/ D/[FB]/[FB]/[FB]/ D/[FB]/[FB]/[FB]/!ped-up! || %68
[K:E]!ped! D/[FB]/[FB]/[FB]/ D/[FB]/[FB]/[FB]/ D/[FB]/[FB]/[FB]/!ped-up! | %69
!ped! [EGB] z!ped-up!!ped![I:staff -1] g/4e/4B/4e/4[I:staff +1] z!ped-up![K:bass]!ped! G,/4E,/4B,,/4E,/4 E,,!ped-up! | %70
!ped! [F,,,B,,,F,,] z!ped-up!!ped! [F,,,B,,,F,,] z!ped-up!!ped! [F,,,B,,,F,,] z!ped-up! | %71
!ped! [G,,,B,,,G,,] z!ped-up!!ped! z2!ped-up!!ped! z2!ped-up! | %72
!ped! [D,,B,,D,] z!ped-up!!ped! [D,,B,,D,] z!ped-up!!ped! [D,,B,,D,] z!ped-up! | %73
!ped! [E,,B,,E,]!ped-up!!ped! [E,E]!ped-up!!ped![E,E]!ped-up!!ped![C,E,C]!ped-up!!ped![C,E,C]!ped-up!!ped![=C,E,=C]!ped-up! | %74
!ped! [=C,E,=C]!ped-up!!ped![B,,E,B,]!ped-up!!ped! [=A,,E,=A,]!ped-up!!ped![G,,E,G,]!ped-up![K:treble]!ped! [G,EG]!ped-up!!ped![A,EA]!ped-up! | %75
"^molto legato"!ped! z/ (A<A, G<G, F/F,-!ped-up! | %76
!ped! F,/ G<G, F/F,)!ped-up![K:bass]!ped! ([^G,,^G,][=G,,=G,])!ped-up! || %77
[K:Ab]!ped! ([E,E]3 [F,F])!ped-up![K:treble]"^ritenente"!ped! ([G,G]/[A,A]/)!ped-up!!ped!(.[B,B]/!ped-up!!ped!.[Cc]/)!ped-up! | %78
"^espressivo"!ped! z/ (d<D c<C B/B,-!ped-up! |!ped! B,/ c<C B/B,!ped-up!!ped! A/A,/B,/C/)!ped-up! | %80
[K:bass]!ped! (E/C/D/D,/!ped-up!!ped! D/=B,/C/C,/!ped-up!!ped! C/=A,/_B,/B,,/)!ped-up! | %81
!ped! (D/=B,/C/C,/!ped-up!!ped! C/=A,/_B,/B,,/)!ped-up!!ped! _A,/G,/!ped-up!!ped!A,/G,/!ped-up! | %82
!ped! A,2!ped-up!!ped! G,2!ped-up!!ped! (A,/F,/)!ped-up!!ped!(A,/F,/)!ped-up! | %83
!ped! [C,E,A,]2!ped-up!!ped! !trill(!TB,,2!ped-up!!ped! !trill(!TA,,2!ped-up! | %84
!ped! !trill(!TG,,2!ped-up!!ped! !trill(!TF,,2!ped-up!!ped! !trill(!TE,,2 | %85
 !trill(!TD,,4-!ped-up!!ped!!ped-up!!ped!!ped-up!!ped!!ped-up! D,,/C,,/4D,,/4E,,/4D,,/4C,,/4B,,,/4 | %86
!ped! A,,,/[A,,C,]/!ped-up!!ped![A,,C,]/[G,,A,,C,]/!ped-up!!ped! [G,,A,,C,]/[F,,A,,C,]/[F,,A,,C,]/[E,,A,,C,]/!ped-up!!ped! [E,,A,,C,]/[D,,A,,C,]/[C,,A,,C,]/[C,,A,,C,]/!ped-up! | %87
!ped! C,,/[A,,C,]/!ped-up!!ped![A,,C,]/[G,,A,,C,]/!ped-up!!ped! [G,,A,,C,]/[F,,A,,C,]/[F,,A,,C,]/[E,,A,,C,]/!ped-up!!ped! [E,,A,,C,]/[D,,A,,C,]/[C,,A,,C,]/[C,,A,,C,]/!ped-up! | %88
!ped! C,,/[A,,C,]/!ped-up!!ped![A,,C,]/[G,,A,,C,]/!ped-up!!ped! [G,,A,,C,]/[F,,A,,C,]/[F,,A,,C,]/[E,,A,,C,]/!ped-up!!ped! [E,,A,,C,]/[D,,A,,C,]/[C,,A,,C,]/[C,,A,,C,]/!ped-up! | %89
 [D,,A,,B,,]2 z3/2 [=D,A,]/ [E,G,]z/[E,B,]/ | %90
!ped! ([F,A,]2 [G,B,]2 [A,=C]/)!ped-up!!ped!([A,C]/[B,_D]/[CE]/ | %91
 [DF])!ped-up!!ped! z z!ped-up!!ped! [D,F,A,]/[=D,F,A,]/!ped-up! [E,G,]z/[E,B,]/ | %92
"^dolce"!ped! (CD/C/ B,/A,/G,/A,/) B,2!ped-up! | %93
!ped! A,/ (C,/D,/C,/ B,,/A,,/G,,/A,,/ B,,2)!ped-up! | %94
!ped! [A,,,A,,]2!ped-up!!ped! [A,,,C,,E,,A,,]4- | %95
 [A,,,C,,E,,A,,]2!ped-up!!ped! [A,,C,E,A,]2!ped-up!!ped! [A,CE]2!ped-up! | %96
!ped! [F,A,B,=D]2 [F,A,B,D]4!ped-up! |!ped! [E,G,B,E]2 [E,G,B,E]2 [E,G,B,E]2!ped-up! | %98
!ped! [F,A,B,=D]2 [F,A,B,D]4!ped-up! |!ped! [E,G,B,E]2!ped-up!!ped! ([_D,B,]4- | %100
 [D,B,][C,C])!ped-up!!ped! ([C,C]4- | [C,C][=E,G,])!ped-up!!ped! ([E,G,]4- | %102
 [E,G,][F,A,])!ped-up!!ped! ([F,A,]4- | [F,A,][_E,B,])!ped-up!!ped! [E,B,]4!ped-up! | %104
"^leggiermente"!ped! [A,C] z!ped-up!!ped! z2!ped-up!!ped! z A,,,/4C,,/4E,,/4A,,/4!ped-up! | %105
!ped! .[B,,,E,,B,,] z!ped-up!!ped! [B,,,E,,B,,] z!ped-up!!ped! [B,,,E,,B,,] z!ped-up! | %106
!ped! [C,,E,,C,] z!ped-up!!ped! z2!ped-up!!ped! z2!ped-up! | %107
!ped! [G,,,E,,G,,] z!ped-up!!ped! [G,,E,G,] z!ped-up!!ped! [G,,E,G,] z!ped-up! | %108
!ped! [A,,E,A,] z!ped-up!!ped! [F,A,F] z!ped-up!!ped! [C,A,C]!ped-up!!ped![C,A,C]!ped-up! | %109
!ped! [D,A,D] z!ped-up!!ped! [B,,E,B,] z!ped-up!!ped! [C,E,C]!ped-up!!ped![C,E,C]!ped-up! | %110
!ped! (A,=A, B,C/D/)!ped-up!!ped! [G,B,]2!ped-up! |!ped! ([A,C]3 [_A,C]) [A,C]>[A,C]!ped-up! | %112
!ped! [A,C]/=A,/B,/C/ D/!ped-up!!ped! x/ x E,/E,,/F,,/G,,/!ped-up! | %113
!ped! _A,,2 F,,D,,G,,!ped-up!!ped!B,,!ped-up! |!ped! B,,4!ped-up!!ped! A,,!ped-up! z | %115
!ped! A,,!ped-up! z z2 z2 |][M:2/4] ([F,,F,]2 [G,,G,]2 | [A,,A,]2 [B,,B,]2) | %118
 .[=B,,=B,]2 .[B,,B,]2 | [C,C]4 | ([C,,C,]2 [=E,,=E,]2 | [G,,G,]2 [C,C]2) | .[G,,G,]2 .[G,,,G,,]2 | %123
 [C,,C,]4 :| .[C,,C,]2 .[=B,,,=B,,]2 |: [C,,C,]4- | [C,,C,]2 [_D,,_D,]2- | [D,,D,]2 [=D,,=D,]2- | %128
 [D,,D,]2 [E,,E,]2- | [E,,E,]2 [A,,,A,,]2 | [_D,,_D,]2 [E,,E,]2 | [A,,A,]4 | z2 (([A,C]2 | %133
 [B,D]2)) z2 | z2 (([A,C]2 | [B,D]2)) z2 | z2 ([A,,,A,,]2 | [B,,,B,,]2 [C,,C,]2 | %138
 [D,,D,]2 [=D,,=D,]2 | [E,,E,]2 [=E,,=E,]2) | [F,,F,]2 (([F,A,]2 | [G,B,]2)) z2 | z2 (([F,A,]2 | %143
 [G,B,]2)) z2 | z2 ([F,,F,]2 | [G,,G,]2 [A,,A,]2 | [B,,B,]2 [=B,,=B,]2 | [C,C]4) | %148
"^ritardando"!ped! A,4!ped-up! |!ped! _B,,2 _B,2!ped-up! |!ped! A,2!ped-up!!ped! G,2!ped-up! | %151
 [D,F,]2 [B,,F,]2 | z4 | z4 | .[C,F,]2 .[C,=E,]2 |1 .[F,,F,]2 [C,,C,]2- | %156
 [C,,C,]2 .[=B,,,=B,,]2 :|2 .[F,,F,]2!ped! z2 ||[K:Db] D,,2 F,2 | z2!ped-up! A,2 | z2 F,2 | %161
 z2 A,2 | z2 C2 | z2[K:treble] e2 | z2 c'2 | d'2!ped! z2 |[K:bass] D,,2 F,2 | z2!ped-up! A,2 | %168
 z2 F,2 | z2 A,2 | z2[K:treble] F2 | z2 f2 | z2 f'2 | g'2!ped! z2 |[K:bass] G,,2 B,2 | %175
 z2!ped-up! D2 | z2 B,2 | z2 D2 | z2[K:treble] F2 | z2 a2 | z2 f'2 | g'2!ped! z2 | %182
[K:bass] G,,2 B,2 | z2!ped-up! D2 | z2 B,2 | z2 D2 | z2 [F,=D]2 |[K:treble] z2 b2 | z2 =d'2 | %189
 e'2!ped! z2 |[K:bass] E,,2 G,2 | z2!ped-up! [C,,A,,C,]2 |!ped! z2 [D,,A,,D,]2 | D,,2 F,2 | %194
 z2!ped-up! A,2 | z2 F,2 | z2 A,2 | z2 C2 | z2[K:treble] e2 | z2 c'2 | d'2!ped! z2 | %201
[K:bass] D,,2 F,2 | z2!ped-up! A,2 | z2 F,2 | z2 A,2 | z2 C2 | z2[K:treble] e2 | z2 c'2 | z2 d'2 | %209
[K:bass]"^una corda" (F,C, E,D,) | z4 |[K:treble] (FC ED) | !fermata!z4 || %213
[K:Ab][K:bass]!p!"^tutte le corde" ([F,,F,]2 [G,,G,]2 | [A,,A,]2 [B,,B,]2) | %215
 .[=B,,=B,]2 .[B,,B,]2 | [C,C]4 | ([C,,C,]2 [=E,,=E,]2 | [G,,G,]2 [C,C]2) | .[G,,G,]2 .[G,,,G,,]2 | %220
 [C,,C,]4 |"^ritardando                 -                      -" ([F,,F,]2 [G,,G,]2 | %222
 [A,,A,]2 [B,,B,]2) | .[=B,,=B,]2 .[B,,B,]2 |"^-" [C,C]4 | ([C,,C,]2 [=E,,=E,]2 | %226
 [G,,G,]2 [C,C]2) | .[G,,G,]2 .[G,,,G,,]2 | [C,,C,]4 || .[C,,C,]2 .[=B,,,=B,,]2 |: [C,,C,]4- | %231
 [C,,C,]2 [_D,,_D,]2- | [D,,D,]2 [=D,,=D,]2- | [D,,D,]2 [E,,E,]2- | [E,,E,]2 [A,,,A,,]2 | %235
 [_D,,_D,]2 [E,,E,]2 | [A,,A,]4 | z2 (([A,C]2 | [B,D]2)) z2 | z2 (([A,C]2 | [B,D]2)) z2 | %241
 z2 ([A,,,A,,]2 | [B,,,B,,]2 [C,,C,]2 | [D,,D,]2 [=D,,=D,]2 | [E,,E,]2 [=E,,=E,]2) | %245
 [F,,F,]2 (([F,A,]2 | [G,B,]2)) z2 | z2 (([F,A,]2 | [G,B,]2)) z2 | z2 ([F,,F,]2 | %250
 [G,,G,]2 [A,,A,]2 | [B,,B,]2 [=B,,=B,]2 | [C,C]4) | %253
"^ritardando        -                 -\n"!ped! A,4!ped-up! |!ped! _B,,2 _B,2!ped-up! | %255
!ped! A,2!ped-up!!ped! G,2!ped-up! | F,2 F,2 | z4 | z4 | .[C,F,]2 .[C,=E,]2 |1 %260
 .[F,,F,]2 [C,,C,]2- | [C,,C,]2 .[=B,,,=B,,]2 :|2 [F,,F,]2 z2 || [F,,C,F,]4 | z4 | [=E,,C,=E,]4 | %266
 z4 | [F,,C,F,]4 | z4 | [B,,,B,,]4 | z4 | [C,,C,]4 | z4 | [C,,C,]4 | %274
!ped!!p!"^poco    ri       -      tar          -         dan         -         do" F,,,C,,=A,,,F,, | %275
 C,,=A,,F,,C, | =A,,F,C,=A, | F,C=A,!fermata!F!ped-up! |] %278
[K:Db][M:4/4]"^una corda"!ped! [B,,,B,,]7/4[B,,,B,,]/4 [B,,,B,,][B,,,B,,]!ped-up!!ped! [B,,,B,,]4!ped-up! | %279
!ped! [_C,,_C,]2!ped-up!!ped! [_F,,_F,]2!ped-up!!ped! [G,,G,]4!ped-up! | %280
!ped! [=G,,=G,][A,,A,]!ped-up!!ped! [D,,D,]2!ped-up!!ped! [E,,E,]2!ped-up!!ped! E,,2!ped-up! | %281
!ped! (5:4:5(E,,/4=G,,/4B,,/4D,/4E,/4) z z4!ped-up! z4 [A,_C] [_F,,_F,][D,,D,][_C,,_C,] | %282
!ped!"_sempre tenuto" [=B,,^D,^F,=A,]8 x2 |[K:E] [B,,D,F,B,]8 x4!ped-up! | %284
!ped! [E,G,B,]2!ped-up!!ped! [_D,=E,=G,_B,]2!ped-up! | %285
[K:Gb]"^dimin.smorzando"!ped! [=D,F,A,C]2!ped!!ped-up! z2!ped-up!!ped!!ped-up!!ped! z2!ped-up! | %286
!ped! z2!ped-up!!ped!!ped-up! |[M:12/16]!ped! E,/"^tutte le corde"E,/E,/ E,/E,/E,/ | %288
 [C,E,]/[C,E,]/[C,E,]/ [C,E,]/[C,E,]/[C,E,]/ [A,,C,E,]/[A,,C,E,]/[A,,C,E,]/ [A,,C,E,]/[A,,C,E,]/[A,,C,E,]/ | %289
 [A,,C,E,]/[A,,C,E,]/[A,,C,E,]/ [A,,C,E,]/[A,,C,E,]/[A,,C,E,]/ [A,,C,E,]/[A,,C,E,]/[A,,C,E,]/ [A,,C,E,]/[A,,C,E,]/[A,,C,E,]/ | %290
!ped! [B,,D,E,]/!ped-up![B,,D,E,]/[B,,D,E,]/ [B,,D,E,]/[B,,D,E,]/[B,,D,E,]/ [B,,D,E,]/[B,,D,E,]/[B,,D,E,]/ [B,,D,E,]/[B,,D,E,]/[B,,D,E,=G,]/ | %291
!ped! [C,E,A,]/[C,E,A,]/[C,E,A,]/!ped-up!!ped! [=C,E,A,]/[C,E,A,]/[C,E,A,]/!ped-up!!ped! [D,_F,A,]/[D,F,A,]/[D,F,A,]/ [F,A,D]/[F,A,D]/[F,A,D]/!ped-up! | %292
!ped! [E,A,_C]/[E,A,C]/[E,A,C]/ [E,A,C]/[E,A,C]/[E,A,C]/!ped-up!!ped! [E,=G,B,]/[E,G,B,]/[E,G,B,]/ [D,E,G,B,]/[C,E,A,]/[B,,E,G,]/!ped-up! | %293
!ped! [A,,E,A,]/[A,,C,E,]/[A,,C,E,]/ [A,,C,E,]/[A,,C,E,]/[A,,C,E,]/!ped-up!!ped! [_G,,C,_F,]/[G,,C,F,]/[G,,C,F,]/ [G,,C,F,]/[G,,C,F,]/[G,,C,F,]/!ped-up! | %294
!ped! [G,,C,E,]/[G,,C,E,]/[G,,C,E,]/ [C,G,C]/[C,G,C]/[C,G,C]/!ped-up!!ped! [D,_F,C]/[D,F,C]/[D,F,C]/!ped-up!!ped! [D,F,B,]/[D,F,B,]/[D,F,B,]/!ped-up! | %295
!ped! [E,G,C]/[E,G,C]/[E,G,C]/!ped-up!!ped! [_F,C_F]/[F,CF]/[F,CF]/!ped-up!!ped! [G,CE]/[G,CE]/"^decresc."[G,CE]/!ped-up!!ped! [G,B,DF]/[G,B,DF]/[G,B,DF]/!ped-up! | %296
!ped! [=G,B,D_F]/[G,B,DF]/[G,B,DF]/!ped-up!!ped! [_G,B,DF]/[G,B,DF]/[G,B,DF]/[K:treble]!ped-up!!ped! [CEG]/[CEG]/[CEG]/!ped-up!!ped! [CEG]/[CEG]/[CEG]/!ped-up! | %297
!ped! [=CEG]/[CEG]/[CEG]/ [CEG]/[CEG]/[CEG]/ [CEG]/[CEG]/[CEG]/!ped-up!!ped! [CEGA]/[CEGA]/[CEGA]/!ped-up! | %298
!ped! [D_FA]/[DFA]/[DFA]/ [DFA]/[K:bass][D,A,D]/[D,A,D]/ [D,A,D]/[D,A,D]/[D,A,D]/!ped-up!!ped! [E,A,_C]/[E,A,C]/[E,A,C]/!ped-up! | %299
!ped! [_F,A,D]/[F,A,D]/[F,A,D]/!ped-up!!ped! [E,A,C]/[E,A,C]/[E,A,C]/!ped-up!!ped! [D,_F,B,]/[D,F,B,]/[D,F,B,]/!ped-up!!ped! [=D,=F,B,]/[D,F,A,C]/[D,F,A,C]/!ped-up! | %300
!ped! [E,A,C]/[E,A,C]/[E,A,C]/!ped-up!!ped! [E,C=D]/[E,CD]/[E,CD]/!ped-up!!ped! [E,B,E]/E,/E,/ E,/E,/[_D,E,]/!ped-up! | %301
!ped! [C,E,]/[C,E,]/[C,E,]/ [C,E,]/[C,E,]/[C,E,]/!ped-up!!ped! [B,,E,]/[B,,E,]/[B,,E,]/ [B,,E,]/[B,,E,]/[B,,E,]/!ped-up! | %302
!ped! [A,,E,]/[A,,E,]/[A,,E,]/ [A,,E,]/[A,,E,]/[A,,E,]/!ped-up!!ped! [=G,,E,]/[G,,E,]/[G,,E,]/!ped-up!!ped! [_G,,E,]/[G,,E,]/[G,A,]/!ped-up! | %303
!ped! [_F,A,]/[F,A,D]/[F,A,D]/!ped-up!!ped! [F,A,D]/[E,A,=C]/[D,A,D]/!ped-up!!ped! [E,A,_C]/[E,A,C]/[E,A,C]/!ped-up!!ped! [E,=G,B,D]/[E,G,B,D]/[E,G,B,D]/!ped-up! | %304
!ped! [_F,=G,B,D]/[F,G,B,D]/[F,G,B,D]/!ped-up!!ped! [E,G,B,D]/[E,G,B,D]/[E,G,B,D]/ [A,C]3/2 ([C,,C,]3/2!ped-up! | %305
 [B,,,B,,]3/2[E,,E,]3/2!ped-up![A,,,A,,]) z/!ped!!pp! [A,,,A,,]/ z/ z/ | !fermata![A,,,A,,]3 | %307
[K:Ab][M:6/8]!p! (A,3 | D3 B,3 | E3 C3 | F3 E2 D) | C3- (CA,G, |"^sempre piano" F,G,E, =D,E,F, | %313
 G,A,F, =E,F,G, | A,G,A, B,C=D) | _EF=D EF_D | CED CDE- | ECD- D=B,C- | C_B,D E2 D | C2 C, F,2 E, | %320
 D,2 =D, E,F,G, | (A,CB, A,B,G, | F,A,G, F,=E,F, | G,B,A, G,A,F,) | =E,G,F, E,=D,E, | %325
 F,_E,=D, E,C,A,, | =A,, B,,2 [E,,E,]3 | [A,,A,]3 [F,,F,]3 | [B,,B,]3 [G,,G,]3 | %329
 [C,C]3 [B,,B,]2 [A,,A,] | [G,,G,]3 [B,,B,]3- | [B,,B,]3 [A,,A,]2 [_G,,_G,] | %332
"^dim." [F,,F,]3- [F,,F,]_G,F, | F,=D,E,- E,F,E, | E,C,_D,-!p! D,=B,,C, | _B,,C,A,, =G,,A,,B,, | %336
 C,D,B,, =A,,B,,C, | D,C,=D, E,F,G, | (A,B,G, F,=E,F,) | (G,A,F, =E,=D,E,) | F,2 _E, _D,2 C, | %341
 B,,2 =B,, C,2 _B,, | A,,2 =A,, B,,2 _A,, | G,,A,,G,, F,,E,,D,, | C,,D,,B,,, =A,,,B,,,C,, | %345
 D,,E,,C,, B,,,C,,D,,- | D,,C,,E,, D,,F,,=D,, | E,,G,,F,, E,,=D,,E,, | =E,,G,,F,, E,,=D,,E,, | %349
 F,,=A,,G,, F,,G,,A,, | ^F,,=A,,G,, F,,G,,A,, | G,,=D,C, =B,,C,D, | =D,E,F, z2 z | z6 | %354
!ff! [G,,,G,,]6 | [C,,C,]3 [=A,,,=A,,]3 | [=D,,=D,]3 [=B,,,=B,,]3 | [E,,E,]3 [C,,C,]3 | %358
 [F,,F,]3 [=D,,=D,]3 | [G,,G,]3 [=E,,=E,]3 | [=A,,=A,]2 [G,,G,] [F,,F,][G,,G,][A,,A,] | %361
 [B,,B,]3 [C,C]3 | [D,D]3 CD_E- | EDB, B,=A,C- | CB,D G,_A,B,- | B,A,C- CB,D | DCE B,CD | %367
 DCA, A,G,B, | B,A,_G, F,=E,F, | _E,F,D, D,C,_G, | _G,F,E, _D,B,A, | _G,E,_D, C,D,E, | %372
 D,E,D,- D,=B,,C,- | C,_B,,D, E,F,D, | C,A,, z A,3 | D3 B,3 | E2 C- CB,A, | G,A,B, C=D,=E, | %378
 F,G,A, B,C,=D, | [E,,E,]2 [E,,E,]- [E,,E,]3- | [E,,E,]2 [E,,E,]- [E,,E,]3 | %381
 [E,,E,]2- [E,,E,]- [E,,E,].[D,,D,].[C,,C,] | .[B,,,B,,].[C,,C,].[D,,D,] [E,,,E,,]3 | %383
 [A,,,A,,]3 [F,,,F,,]3 | [B,,,B,,]3 [F,,,G,,]3 | [C,,C,]3 [B,,,B,,]2 [A,,,A,,] | %386
 [G,,,G,,]3 [_G,,,_G,,]3 | [F,,,F,,]2 [_F,,,_F,,] [E,,,E,,]2 [D,,,D,,] | %388
 [C,,,C,,]2 [A,,A,] [D,D]2 [B,,B,] | [E,E]2 [C,C] [F,F]2 [G,G] | [A,A]2 [=E,=E] [F,F][D,D][=D,=D] | %391
!ped! [_E,_E]3!ped-up! [E,,E,]2 z | z2 z D,B,,G,, | E,,G,,B,, z2 z | z2 z [E,,E,]3- | [E,,E,]3 | %396
[M:12/16]!ped! [=D,,=D,]3/2 z z/!ped-up! | %397
 =D,/B,,/G,,/ =D,,/[B,,,D,,B,,]/[B,,,D,,B,,]/ [B,,,D,,B,,]/[G,,,D,,G,,]/[G,,B,,]/ [G,,B,,]/[G,,B,,]/[G,,B,,]/ || %398
[K:Bb] [G,,B,,D,]/[G,,B,,D,]/[G,,B,,D,]/ [G,,B,,D,]/[G,,B,,D,]/[G,,B,,D,]/ [G,,B,,D,]/[G,,B,,D,]/[G,,B,,D,]/!ped-up!!ped! [G,,B,,D,]/[G,,B,,D,]/[G,,B,,D,]/ | %399
!ped! [=A,,C,D,^F,]/[A,,C,D,F,]/[A,,C,D,F,]/ [A,,C,D,F,]/[A,,C,D,F,]/[A,,C,D,F,]/ [A,,C,D,F,]/[A,,C,D,F,]/[A,,C,D,F,]/ [A,,C,D,F,]/[A,,C,D,F,]/[A,,C,D,F,]/!ped-up! | %400
!ped! [B,,D,G,]/[B,,D,G,]/[B,,D,G,]/!ped-up!!ped! [=B,,D,G,]/[B,,D,G,]/[B,,D,G,]/!ped-up!!ped! [C,E,G,]/[C,E,G,]/[C,E,G,]/!ped-up!!ped! [E,G,C]/[E,G,C]/[E,G,C]/!ped-up! | %401
!ped! [D,G,_B,]/[D,G,B,]/[D,G,B,]/!ped-up!!ped! [D,G,B,]/[D,G,B,]/[D,G,B,]/!ped-up!!ped! [D,G,B,]/[D,G,B,]/[D,G,B,]/!ped-up!!ped! [D,^F,A,]/[D,F,A,]/[D,F,A,]/!ped-up! | %402
"^poco"!ped! [G,,B,,D,G,]/[G,,B,,D,G,]/[G,,B,,D,G,]/!ped-up!!ped! [G,,B,,D,]/[G,,B,,D,]/[G,,B,,D,]/!ped-up!!ped! [F,,B,,E,]/[F,,B,,E,]/[F,,B,,E,]/!ped-up!!ped! [F,,A,,E,]/[F,,A,,E,]/[F,,A,,E,]/!ped-up! | %403
!ped! [F,,B,,D,]/[F,,B,,D,]/[F,,B,,D,]/!ped-up!!ped! [F,,_A,,B,,D,]/[F,,A,,B,,D,]/[F,,A,,B,,D,]/!ped-up!!ped! [G,,B,,E,]/[G,,B,,E,]/[G,,B,,E,]/!ped-up!!ped! [E,,B,,E,]/[E,,B,,E,]/[E,,B,,E,]/!ped-up! | %404
!ped! [D,,B,,D,]/[D,,B,,D,]/[D,,B,,D,]/!ped-up!!ped! [E,,B,,E,]/[E,,B,,E,]/[E,,B,,E,]/!ped-up!!ped! [F,,B,,D,]/[F,,B,,D,]/[F,,B,,D,]/!ped-up!!ped! [_G,,C,E,]/[G,,C,E,]/[G,,C,E,_G,]/!ped-up! | %405
!ped! [_G,,C,E,_G,]/[G,,C,E,G,]/[F,,C,E,F,]/ [F,,C,E,F,]/[F,,A,,C,E,]/[F,,A,,C,E,]/!ped-up!!ped! [F,,B,,D,]/[B,,D,F,]/[B,,D,F,]/ [B,,D,F,]/[B,,D,F,]/[B,,D,F,]/!ped-up! | %406
"^poco"!ped! [_A,,=B,,D,F,]/[A,,B,,D,F,]/[A,,B,,D,F,]/!ped-up!!ped! [G,,B,,D,F,]/[G,,B,,D,F,]/[C,D,F,_A,]/!ped-up!!ped! [B,,D,F,G,]/[B,,D,F,G,]/[B,,D,F,G,]/ [B,,D,F,G,]/[B,,D,F,G,]/[B,,D,F,G,]/!ped-up! | %407
!ped! [C,E,G,]/[C,E,G,]/[C,E,G,]/!ped-up!!ped! [C,E,G,]/[C,^F,=A,]/[C,F,A,]/!ped-up!!ped! [C,F,A,]/[C,F,A,]/[C,F,A,]/!ped-up!!ped! [_B,,G,_B,]/[B,,G,B,]/[B,,G,B,]/!ped-up! | %408
!ped! [A,,^F,A,]/[A,,F,A,]/[A,,F,A,]/!ped-up!!ped! [G,,D,G,]/[G,,D,G,]/[G,,D,G,]/!ped-up!!ped! [C,E,_A,]/[C,E,A,]/[C,E,A,]/!ped-up!!ped! [^C,=E,G,B,]/[C,E,G,B,]/[C,E,G,B,]/!ped-up! | %409
!ped! [D,G,B,]/[D,G,B,]/[D,G,B,]/!ped-up!!ped! [D,=E,G,^C]/[D,E,G,C]/[D,E,G,C]/!ped-up!!ped! [D,E,B,C]/[D,E,B,C]/[D,^F,=A,D]/!ped-up!!ped! [D,F,A,D]/D,/[C,D,]/!ped-up! | %410
"^poco"!ped! [B,,D,]/[B,,E,]/[B,,E,]/ [B,,E,]/[B,,D,]/[B,,D,]/!ped-up!!ped! [A,,D,]/[A,,D,]/[A,,D,]/ [A,,D,]/[A,,D,]/[A,,D,]/!ped-up! | %411
!ped! [G,,D,]/[G,,E,]/[G,,E,]/ [G,,E,]/[G,,D,]/[G,,D,]/!ped-up!!ped! [G,,D,]/[^F,,D,]/[F,,D,]/!ped-up!!ped! [F,,D,]/[=F,,G,,D,]/[F,,G,,D,]/!ped-up! | %412
!ped! [F,,G,,D,]/[E,,G,,C,]/[E,,G,,C,]/!ped-up!!ped! [E,,G,,C,]/[C,G,C]/[C,G,C]/!ped-up!!ped! [C,G,C]/[D,G,B,]/[D,G,B,]/!ped-up!!ped! [D,G,B,]/[D,A,C]/[E,A,C]/!ped-up! | %413
!ped! [E,A,C]/[E,A,C]/[E,A,C]/!ped-up!!ped! [D,^F,C]/[D,F,C]/[D,F,C]/!ped-up!!ped! [G,B,] z/!ped-up! z/ z/!ped! [B,,,B,,]/!ped-up! | %414
 z/ z/!ped! [A,,,A,,]/!ped-up! z/ z/!ped! [D,,D,]/!ped!!ped-up! z/ z/ [G,,D,]/ z/ z/ [G,,,D,,G,,]/!ped-up! | %415
 z/ z/ [G,,,D,,G,,]/ z/ z/ [G,,,D,,G,,]/ | z/ z/ [G,,,D,,G,,]/ z/ z/ [G,,,D,,G,,]/ | %417
 z/ z/ [G,,,=B,,,D,,G,,]/ z/ z/ [G,,,B,,,D,,G,,]/ z/ z/ [G,,,B,,,D,,G,,]/ z/ z/ [G,,,B,,,D,,G,,]/ | %418
 z/ z/ (G,,,/=B,,,D,,/ G,,=B,,/D,) z/ | z2 z | %420
[K:G][M:6/8]"^sempre una corda""^L'inversione della Fuga.(Die Umkehrung der Fuge.)" z2 z | z6 | %422
 z6 | z6 | z6 | z6 | z6 | z6 | z2 z (D3 | A,3 C3 | G,3 B,3 | F,3 G,=F,_E,- | E,D,B,,- B,,C,_E,) | %433
 G,=F,_E, D,C,D, | =F,_E,D, C,B,,C, | _E,D,C, B,,C,(^F,, | (G,,)C,A,, D,=B,,_E, || %437
[K:Bb] D,/C,/=B,,) z z2 z | C,F,E, G,^F,C- | C/_B,/A, z (^F,B,A, | G,CA, DB,E) | D/C/B, z z G,C- | %442
 C/B,/A,- A,/G,/ F,CA, | D=B,=F E/D/C- C/_B,/ | _A,A,/G,/=F,/G,/ [C,,C,]3- | [C,,C,]3 [F,,F,]3- | %446
 [F,,F,]3 [D,,D,]3- | [D,,D,]3 [G,,G,]3- | [G,,G,]3 [E,,E,]3- | [E,,E,]3 [_A,,_A,]3- | %450
 [A,,A,]3 [G,,G,]3- | [G,,G,]3 [F,,F,]3- | [F,,F,]3 [E,,E,]2 z | z2 B,,/F,/ E,/_A,/G,/4F,/4E,/ z | %454
[K:bass][I:staff -1] E/_A/G/c/B/4A/4G/"^m.s." e3 | =A3 _d3 | %456
 G3"^poco a poco""^nach und nach"!<(! c3 |"^più molto""^wieder geschwinder" F3!mp! =G2 _A!<)! || %458
[K:Ab] B3!f!!ped-up!!ped![I:staff +1] [A,,,A,,]3 |!ped! [D,,D,]3!ped-up!!ped! [B,,,B,,]3!ped-up! | %460
!ped! [E,,E,]3!ped-up!!ped! [C,,C,]3!ped-up! | %461
!ped! [F,,F,]3!ped-up!!ped! [E,,E,]2!ped-up!!ped! [D,,D,]!ped-up! | %462
!ped! [C,,C,]!ped-up!!ped![B,,,B,,]!ped-up!!ped![A,,,A,,]!ped-up!!ped! [G,,,G,,]2 z!ped-up! | %463
!ped![I:staff -1] A3!ped-up!!ped! F3!ped-up! |!ped! _B3!ped-up!!ped! G3!ped-up! | %465
!ped! c3!ped-up!!ped! B2!ped-up!!ped! A!ped-up! | %466
[I:staff +1][K:bass]!ped![I:staff -1] G3!ped-up!!ped! B3-!ped-up! | B3-!ped-up!!ped! BA_G | %468
!ped! F2 =G!ped-up!!ped![I:staff +1] C,/F,/E,/A,/G,/A,/!ped-up! | %469
!ped! B,,/G,/E,/G,/E,/G,/!ped-up!!ped! D,/B,/E,/B,/E,/B,/!ped-up! | %470
!ped! C,/F,/E,/A,/G,/A,/!ped-up!!ped! E,/A,/_G,/A,/=G,/A,/!ped-up! | %471
!ped! D,/A,/G,/A,/=D,/A,/!ped-up!!ped! E,/G,/E,/G,/!ped-up!!ped!=E,/B,/!ped-up! | %472
!ped! F,/C/A,/C/=B,/C/!ped-up!!ped! F,/D/A,/D/C/D/!ped-up! | %473
!ped! D,/D/A,/D/C/D/!ped-up!!ped! F,/D/A,/D/A,/D/!ped-up! | %474
!ped! A,/D/C/E/=D/E/!ped-up!!ped! A,/C/=B,/C/A,/C/!ped-up! | %475
!ped! _D,/_B,/F,/B,/=A,/B,/!ped-up!!ped! =D,/B,/F,/B,/!ped-up!!ped!D,/B,/!ped-up! | %476
!ped! E,/B,/G,/B,/=A,/B,/!ped-up!!ped! E,/B,/G,/B,/E,/G,/!ped-up! | %477
!ped! E,/G,/F,/_A,/G,/B,/!ped-up!!ped! G,/B,/A,/C/!ped-up!!ped!B,/D/!ped-up! | %478
!ped! C/E/D/F/C/E/!ped-up!!ped! =B,/F/=D/F/=E/F/!ped-up! | %479
!ped! =B,/F/=D/F/=E/F/!ped-up!!ped! B,/A/=D/A/B,/A/!ped-up! | %480
!ped! C/A/_E/A/G/A/!ped-up!!ped! _D/A/F/A/=D/F/-!ped-up! | %481
!ped! F/E/_D/C/B,/A,/-!ped-up!!ped! A,/G,/F,/E,/=D,/E,/!ped-up! | %482
!ped! F,,/F,/B,,/F,/B,,/F,/!ped-up!!ped! G,,/G,/E,/G,/E,/G,/!ped-up! | %483
!ped! A,,/B,,/A,,/_G,,/F,,/E,,/!ped-up!!ped! _D,,/A,,/F,,/A,,/!ped-up!!ped!=D,,/A,,/!ped-up! | %484
!ped! E,,/E,/!ped-up!!ped!_D,,/_D,/!ped-up!!ped!E,,/E,/!ped-up!!ped! A,,,/A,,/C,,/A,,/E,,/A,,/!ped-up! | %485
!ped! A,,,/A,,/D,,/A,,/F,,/A,,/!ped-up!!ped! A,,,/A,,/D,,/A,,/_F,,/A,,/!ped-up! | %486
!ped! A,,,/A,,/C,,/A,,/E,,/A,,/!ped-up!!ped! A,,,/A,,/E,,/A,,/_G,,/A,,/!ped-up! | %487
!ped! A,,,/A,,/D,,/A,,/F,,/A,,/!ped-up!!ped! A,,,/A,,/=D,,/A,,/F,,/A,,/!ped-up! | %488
!ped! A,,,/A,,/E,,/A,,/_G,,/A,,/!ped-up!!ped! A,,,/A,,/E,,/A,,/G,,/A,,/!ped-up! | %489
!ped! A,,,/A,,/D,,/A,,/F,,/A,,/!ped-up!!ped! A,,,/A,,/=D,,/A,,/F,,/A,,/!ped-up! | %490
!ped! A,,,/A,,/=D,,/A,,/F,,/A,,/!ped-up!!ped! A,,,/A,,/D,,/A,,/F,,/A,,/!ped-up! | %491
!ped! A,,,/=G,,/B,,,/G,,/_D,,/G,,/ _F,,/G,,/D,,/G,,/B,,,/G,,/!ped-up! | %492
 A,,,/G,,/B,,,/G,,/D,,/G,,/!ped-up!!ped! _F,,/G,,/D,,/G,,/B,,,/G,,/ | %493
!ped! [A,,,C,,E,,A,,]2 z z2 z!ped-up! |[K:bass][I:staff -1] c/A/E/A/E/C/[I:staff +1] z2 z | %495
 A,,,/C,,/E,,/ z/ z A,,/C,/E,/ z/ z | A,/C/E/ z/ z[I:staff -1] A,/C/E/[I:staff +1] z/ z | %497
 [A,,,C,,E,,A,,]2 z |] %498
V:3
 x6 | x6 | A3 AAA | G2 G x x2 | x6 | x6 | x6 | x6 | x6 | x6 | x6 | x6 | x6 | x6 | x6 | x6 | x6 | %17
 x6 |!8va(! x6 | x6 | x6!8va)! | x6 | x4 BB | B2 B2 B/e/B/e/ | x3/2 =A/4e/4 x2 x/ A/4f/4 z | %25
 x/ B/4f/4 x x/ c/4f/4 x x/ =d/4f/4 x | x6 | x6 | x6 | x7/2!8va(! x5/2 | x2!8va)! x4 | x6 | x6 | %33
 E4- E/C/E/=D/ | x4 A,2 | G,2 x4 | x6 | (x4 e2) | (x4"_cresc." _d2) | c3 x x2 | x6 | x6 | x6 | %43
 c4 x2 | x6 | c4 [Ac]2 | _G2 (G2 AG) | F4 [FA]2 | _G2 G4 | [Fc]2 [FB]4 | [F-B]4 [F=A]F- | FF- F4 | %52
 [F-B]4 [F=A]2 | F6 | %54
 E2 (5:4:5x/4x/4x/4x/4x/4(5:4:5x/4x/4x/4x/4x/4 (5:4:5x/4x/4x/4x/4x/4(5:4:5x/4x/4x/4x/4!trill)!x/4 | %55
 x3 [CE] [CE] x | [EG]2 x4 | x6 | %58
 x2 (5:4:5x/4x/4x/4x/4x/4(5:4:5x/4x/4x/4x/4x/4 (5:4:5x/4x/4x/4x/4!trill)!x/4 x | x6 | x6 | x6 | %62
 x6 | x6 | x6 | x6 | x6 | x6 ||[K:E] x6 | x5[K:bass] x | x4[K:treble] x2 | x6 | x6 | x6 | %74
!8va(! x4!8va)! x2 | x6 | x6 ||[K:Ab] x6 | x6 | x6 | x6 | x4 EE | E2 E2 E/A/E/A/ | %83
 x3/2!p! =D/4A/4 x2 x/"_cresc." D/4B/4 x | x/ E/4B/4 x x/ F/4B/4 x x/ G/4B/4 x | x6 | x6 | x6 | %88
 x6 | x6 | x6 | x6 | A4- A/F/A/G/ | x4 D2 | C2 x4 | x6 |!8va(! x6 | x6 | x6 | x6 | x2!8va)! x4 | %101
 x6 | x6 | x6 | x3[K:bass] x3 | x9/4[K:treble] x15/4 | x4[K:bass] x2 |[K:treble] x6 | x6 | x6 | %110
 x6 | x6 | x6 | (E2 AFB_F) | (_F2 E2) E x | E x z2 x2 |][M:2/4] x4 | x4 | x4 | x4 | x4 | x4 | x4 | %123
 x4 :| .=e2 .=d2 |: =e4- | e2 f2- | f2 [fa]2- | [fa]2 [_e-g]2 | e4 | .f2 .d2 | c4 | x4 | x4 | x4 | %135
 x4 | x4 | x4 | x4 | x4 | x4 | x4 | x4 | x4 | x4 | x4 | x4 | x4 | F4 | x4 | x4 | x4 | x4 | x4 | %154
 x4 |1 x4 | x4 :|2 x4 ||[K:Db] x4 | x4 | x4 | x4 | x4 | x4 | x4 | x4 | x4 | x4 | x4 | x4 | x4 | %171
 x4 | x4 | x4 | x4 | x4 | x4 | x4 | x4 | x4 | x4 | x4 | x4 | x4 | x4 | x4 | x4 | x4 | x4 | x4 | %190
 x4 | x4 | x4 | x4 | x4 | x4 | x4 | x4 | x4 | x4 | x4 | x4 | x4 | x4 | x4 | x4 | x4 |[K:bass] x4 | %208
 x4 | x4 |[K:treble] x4 | x4 | x4 ||[K:Ab] x4 | x4 | x4 | x4 | x4 | x4 | x4 | x4 | x4 | x4 | x4 | %224
 x4 | x4 | x4 | x4 | x4 || .=e2 .=d2 |: =e4- | e2 f2- | f2 [fa]2- | [fa]2 [_e-g]2 | e4 | .f2 .d2 | %236
 c4 | x4 | x4 | x4 | x4 | x4 | x4 | x4 | x4 | x4 | x4 | x4 | x4 | x4 | x4 | x4 | x4 | F4 | x4 | %255
 x4 | x4 | x4 | x4 | x4 |1 x4 | x4 :|2 x4 || x4 | x4 | x4 | x4 | x4 | x4 | x4 | x4 | x4 | x4 | x4 | %274
 x4 | x4 | x4 | x4 |][K:Db][M:4/4] x6 e2 | e2 _c2 x4 | [B,D]_C x2 x4 | x14 | x/{/=A}x3/2 x2 x4 x2 | %283
[K:E] x12 | x4 |[K:Gb] x6 | x2 |[M:12/16] x3 | x6 | x6 | x6 | x6 | x6 | x6 | x6 | x6 | x6 | x6 | %298
 z3/2 z/ A/A/ A/A/A/ A/A/A/ | A/A/A/ A/A/A/ x3 | x6 | z/ =D/D/ (D/E/)E/ _F3/2E3/2- | %302
 E/=D/D/ (D/E/)E/ _FE/ AE/ | A/A/A/ A/A/A/ z3 | z z/ E/E/E/ E3/2 x3/2 | x6 | x3 |[K:Ab][M:6/8] x3 | %308
 x6 | x6 | x6 | z2 z E3 | A3 F3 | B3 G3 | c3 B2 A | G3 B3- | B3 (A2 _G) | F3- (F=DE) | %318
 (FBA- AF=G) | (GcB- BG=A-) | (AB_A GAB) | E3 cdB | AcB AGA | =EGF BcA | GBA GFG- | GCF- F_EF | %326
 E=D_A, G,3 | C BG A3 | G3 B3- | B E2 =D3 | E3 _D3- | D3 C3 | D3 =D3 | E3 B,2 C | _D z z A,3 | %335
 D3 B,3 | E3 C3 | F3 E2 _D | C3 D2 C | B,3 C2 B, |[I:staff +1] A,3 B,2 A, | G,3 A,2 G, | C3 (F,3 | %343
 E,2)[I:staff -1] E[I:staff +1] A,G,B, |[I:staff -1] EFD CDE | F_GE DEF | E A2 A=DF | B,3 B3 | %348
 GBA GFG | CcB =ABc | =AcB AB^F | =D=fe =def | =Bc=d efd | Gc_B AGF | G=Bc- c=AB | E3 F3 | F3 G3- | %357
 G_AF EFG- | GAG FGA | B3 c3- | c3 _e3- | edB- B=Ac- | cBd F3- | F6- | F3 Bcd | c2 _A G2 B | %366
 A2 c E3- | E6- | EBc D3 | _G3 E3 | A3 F3 | B3 A2 _G | F_GF- F=DE | F3 =G3 | AcB- BA_G | %375
 FBA =GAB- | BAG FGA- | AGF =EFG- | GF_E =DEF | B,EG F2 E | =D2 F E2 _D | C2 B, =A,3 | D3 =G,3 | %383
 E,3 =A,_B,C- | C=A,B,[I:staff +1] E,3 | _A,3 F,3 |[I:staff -1] B,2 _D- DCE | D"_cresc."BA GFG- | %388
 GBA .G.FB | .A.Gc- ced- | dc[GB] A[FA][FA] | (3x/x/x/(5:4:5x/4x/4x/4x/4x/4(3x/!trill)!x/x/ x2 x | %392
 x6 | x6 | x6 | x3 |[M:12/16] x3 | x6 ||[K:Bb]x/4<x/4-x-x x/ x x2 | x6 | x6 | x6 | x6 | x6 | x6 | %405
x/4<x/4-x-x3/2 x3/2 x3/2 | x6 |x/4<x/4-x/ x/ x3/2 x3/2 x3/2 | x6 | x6 | x6 | x6 | x6 | %413
 x3/2 z/ (D/E/4D/4) D x/ x3/2 | x6 | x3 | x3 | x6 | x6 | x3 |[K:G][M:6/8] (d3 | A3 c3 | G3 B3 | %423
 F3 G2 A) | B3- (BcB- | BA^G ABA-) | (A=GF GAG-) | GEF GFE | FAG- G =F2 | E3 _E-E^F | D3- D^CD | %431
 D3- D G2 | =F2 D z _ec | B3 B3 | A2 B G3 | =F2 F- F2 _E | D2 x x2 x ||[K:Bb] (=B,DC EDF | %438
 E/D/C) z z2 z | (DG^F AGc) | _B/A/G z z2 z | z DG- G/F/E z | z ^Fc- c/B/Ac | =B/A/GG G-G/=F/E- | %444
 E/D/CD E_AF | _BGc- c/B/_Ac- | cFc- c/B/=A c- | cAd- d/c/B z | z2 z z2 G- | GEc- c/B/_A F- | %450
 FC z z2 E- | EB, z z2 =D- | D_A, z z z B,/E/ | D/G/F/4E/4D/ z G/c/B/4_A/4G/ z | x6 | x6 | x6 | %457
 x6 ||[K:Ab] x3 E/B/G/A/C/_G/ | x6 | x6 | x6 | x3 E3 | x6 | x6 | x6 | x6 | x6 | x3 [Ae]3 | d3 B3 | %470
 e3 c3 | f2 [fb] [eb]2 [_dg] | [ca]3 f3- | f3 e2 d | c3 [c-e]3 | c3 B2 _A | G3 [fd']3- | %477
 [fd']3 [ec']2 [db] | [ca]3 [a=d']3- | [ad']3 x2 x | x6 | e3 eg[egb] | =d3 _d3 | c3 [fa]2 [fa] | %484
 [ea] [fa][dg] [ce]3 | [fa]3 [dg]3 | [eac']3 [e_g]3 | [fd']3 [f_c']3 | [_g=c']6 | [f_d']3 [f=d']3 | %490
!8va(! [_c'=d']6 | x6 | [d'_f']6 | x6!8va)! | x6 | x6 | x6 | x3 |] %498
V:4
 x6 | x6 | (C,3 F,) (.E,.D,) | E,2 !fermata!E, x x2 |[K:treble] x6 | x6 | x6 | x6 | x6 | x6 | x6 | %11
 x4[K:bass] x2 | x6 | x6 | x6 | x6 | x6 | x6 | x2[K:treble] x4 | x6 | x6 | x6 | x5/2[K:bass] x7/2 | %23
 x6 | %24
 x2 (5:4:5x/4x/4x/4x/4x/4(5:4:5x/4x/4x/4x/4!trill)!x/4 (5:4:5x/4x/4x/4x/4x/4(5:4:5x/4x/4x/4x/4!trill)!x/4 | %25
 (5:4:5x/4x/4x/4x/4x/4(5:4:5x/4x/4x/4x/4!trill)!x/4 (5:4:5x/4x/4x/4x/4x/4(5:4:5x/4x/4x/4x/4!trill)!x/4 (5:4:5x/4x/4x/4x/4x/4(5:4:5x/4x/4x/4x/4!trill)!x/4 | %26
 (5:4:5x/4x/4x/4x/4x/4(5:4:5x/4x/4x/4x/4x/4 (5:4:5x/4x/4x/4x/4x/4(5:4:5x/4x/4x/4x/4!trill)!x/4 x/ x3/2 | %27
 x6 | x6 | x6 | x6 | x9/2[K:treble] x3/2 | x7/2[K:bass] x5/2 | E,2- E,/ z/ z B,,2 | %34
 E,,2- E,,/ z/ z x2 | x6 | x6 | x2 E,,4 | D,,6 | x6 | x6 | x6 | x6 | x6 | x6 | x6 | x6 | x6 | x6 | %49
 x6 | x6 | x6 | x6 | x6 | x6 | x6 | x6 | x6 | x6 | x6 | x6 |[K:treble] E2 C4 | x6 | x6 | x6 | x6 | %66
 x6 | x6 ||[K:E] x6 | x4[K:bass] x2 | x6 | x6 | x6 | x6 | x4[K:treble] x2 | x6 | x4[K:bass] x2 || %77
[K:Ab] x4[K:treble] x2 | x6 | x6 |[K:bass] x6 | x4 (C,/D,/)(C,/D,/) | C,2 D,2 (C,/B,,/)(C,/B,,/) | %83
 x2 (5:4:5x/4x/4x/4x/4x/4(5:4:5x/4x/4x/4x/4!trill)!x/4 (5:4:5x/4x/4x/4x/4x/4(5:4:5x/4x/4x/4x/4!trill)!x/4 | %84
 (5:4:5x/4x/4x/4x/4x/4(5:4:5x/4x/4x/4x/4x/4 (5:4:5!trill)!x/4x/4x/4x/4x/4(5:4:5x/4x/4x/4x/4x/4 (5:4:5!trill)!x/4x/4x/4x/4x/4(5:4:5x/4x/4x/4x/4!trill)!x/4 | %85
 (5:4:5x/4x/4x/4x/4x/4(5:4:5x/4x/4x/4x/4x/4 (5:4:5x/4x/4x/4x/4x/4(5:4:5x/4x/4x/4x/4!trill)!x/4 x/ x3/2 | %86
 x6 | x6 | x6 | x6 | x6 | x6 | A,2- A,/ z/ z E,2 | A,,2- A,,/ z/ z E,,2 | x6 | x6 | x6 | x6 | x6 | %99
 x6 | x6 | x6 | x6 | x6 | x6 | x6 | x6 | x6 | x6 | x6 | D,4 E,2 | x6 | D,2- D,/D,/E,/F,/ x2 | %113
 A,,,4- A,,, A,,, | A,,,4 A,,, x | A,,, x z2 x2 |][M:2/4] x4 | x4 | x4 | x4 | x4 | x4 | x4 | x4 :| %124
 x4 |: x4 | x4 | x4 | x4 | x4 | x4 | x4 | x4 | x4 | x4 | x4 | x4 | x4 | x4 | x4 | x4 | x4 | x4 | %143
 x4 | x4 | x4 | x4 | x4 | A,,4 | G,,4 | C,4 | x4 | x4 | x4 | x4 |1 x4 | x4 :|2 x4 ||[K:Db] x4 | %159
 x4 | x4 | x4 | x4 | x2[K:treble] x2 | x4 | x4 |[K:bass] x4 | x4 | x4 | x4 | x2[K:treble] x2 | x4 | %172
 x4 | x4 |[K:bass] x4 | x4 | x4 | x4 | x2[K:treble] x2 | x4 | x4 | x4 |[K:bass] x4 | x4 | x4 | x4 | %186
 x4 |[K:treble] x4 | x4 | x4 |[K:bass] x4 | x4 | x4 | x4 | x4 | x4 | x4 | x4 | x2[K:treble] x2 | %199
 x4 | x4 |[K:bass] x4 | x4 | x4 | x4 | x4 | x2[K:treble] x2 | x4 | x4 |[K:bass] x4 | x4 | %211
[K:treble] x4 | x4 ||[K:Ab][K:bass] x4 | x4 | x4 | x4 | x4 | x4 | x4 | x4 | x4 | x4 | x4 | x4 | %225
 x4 | x4 | x4 | x4 || x4 |: x4 | x4 | x4 | x4 | x4 | x4 | x4 | x4 | x4 | x4 | x4 | x4 | x4 | x4 | %244
 x4 | x4 | x4 | x4 | x4 | x4 | x4 | x4 | x4 | A,,4 | G,,4 | C,4 | (D,2 B,,2) | x4 | x4 | x4 |1 x4 | %261
 x4 :|2 x4 || x4 | x4 | x4 | x4 | x4 | x4 | x4 | x4 | x4 | x4 | x4 | x4 | x4 | x4 | x4 |] %278
[K:Db][M:4/4] x8 | x8 | x8 | x14 | x10 |[K:E] x12 | x4 |[K:Gb] x6 | x2 |[M:12/16] x3 | x6 | x6 | %290
 x6 | x6 | x6 | x6 | x6 | x6 | x3[K:treble] x3 | x6 | x2[K:bass] x4 | x6 | x6 | x6 | x6 | x6 | x6 | %305
 x6 | x3 |[K:Ab][M:6/8] x3 | x6 | x6 | x6 | x6 | x6 | x6 | x6 | x6 | x6 | x6 | x6 | x6 | x6 | x6 | %322
 x6 | x6 | x6 | x6 | x6 | x6 | x6 | x6 | x6 | x6 | x6 | x6 | x6 | x6 | x6 | x6 | x6 | x6 | x6 | %341
 x6 | x6 | x6 | x6 | x6 | x6 | x6 | x6 | x6 | x6 | x6 | x6 | x6 | x6 | x6 | x6 | x6 | x6 | x6 | %360
 x6 | x6 | x6 | x6 | x6 | x6 | x6 | x6 | x6 | x6 | x6 | x6 | x6 | x6 | x6 | x6 | x6 | x6 | x6 | %379
 x6 | x6 | x6 | x6 | x6 | x6 | x6 | x6 | x6 | x6 | x6 | x6 | x6 | x6 | x6 | x6 | x3 |[M:12/16] x3 | %397
 x6 ||[K:Bb] x6 | x6 | x6 | x6 | x6 | x6 | x6 | x6 | x6 | x6 | x6 | x6 | x6 | x6 | x6 | x6 | x6 | %415
 x3 | x3 | x6 | x6 | x3 |[K:G][M:6/8] x3 | x6 | x6 | x6 | x6 | x6 | x6 | x6 | x6 | x6 | x6 | x6 | %432
 x6 | x6 | x6 | x6 | x6 ||[K:Bb] x6 | x6 | x6 | x6 | x6 | x6 | x6 | x6 | x6 | x6 | x6 | x6 | x6 | %450
 x6 | x6 | x6 | x6 |[K:bass] x6 | x6 | x6 | x6 ||[K:Ab] x6 | x6 | x6 | x6 | x6 | x6 | x6 | x6 | %466
[K:bass] x6 | x6 | x6 | x6 | x6 | x6 | x6 | x6 | x6 | x6 | x6 | x6 | x6 | x6 | x6 | x6 | x6 | x6 | %484
 x6 | x6 | x6 | x6 | x6 | x6 | x6 | x6 | x6 | x6 |[K:bass] x6 | x6 | x6 | x3 |] %498
V:5
 x6 | x6 | x6 | %3
 x2 x/8!p!x/8!>(!x/16x/16x/16x/16x/16x/16x/16x/16x/16x/16x/16x/16!>)!x/4 x3/4 x/4x/4x/x/x/ | x6 | %5
 x6 | x6 | x6 | x6 | x6 | x6 | x6 | x6 | x6 | x6 | x6 | x6 | x6 |!8va(! x6 | x6 | x6!8va)! | x6 | %22
 x6 | x6 | x6 | x6 | x6 | x6 | x6 | x7/2!8va(! x5/2 | x2!8va)! x4 | x6 | x6 | x6 | x6 | x6 | x6 | %37
 x6 | x6 | x6 | x6 | x6 | x6 | x6 | x6 | x6 | x6 | x6 | x6 | x6 | x6 | x6 | x6 | x6 | x6 | x6 | %56
 x6 | x6 | x6 | x6 | x6 | x6 | x6 | x6 | x6 | x6 | x6 | x6 ||[K:E] x6 | x5[K:bass] x | %70
 x4[K:treble] x2 | x6 | x6 | x6 |!8va(! x4!8va)! x2 | x6 | x6 ||[K:Ab] x6 | x6 | x6 | x6 | x6 | %82
 x6 | x6 | x6 | x6 | x6 | x6 | x6 | x6 | x6 | x6 | x6 | x6 | x6 | x6 |!8va(! x6 | x6 | x6 | x6 | %100
 x2!8va)! x4 | x6 | x6 | x6 | x3[K:bass] x3 | x9/4[K:treble] x15/4 | x4[K:bass] x2 |[K:treble] x6 | %108
 x6 | x6 | x6 | x6 | x6 | x6 | x6 | x6 |][M:2/4] x4 | x4 | x4 | x4 | x4 | x4 | x4 | x4 :| x4 |: %125
 x4 | x4 | x4 | x4 | x4 | x4 | x4 | x4 | x4 | x4 | x4 | x4 | x4 | x4 | x4 | x4 | x4 | x4 | x4 | %144
 x4 | x4 | x4 | x4 | x4 | x4 | x4 | x4 | x4 | x4 | x4 |1 x4 | x4 :|2 x4 ||[K:Db] x4 | x4 | x4 | %161
 x4 | x4 | x4 | x4 | x4 | x4 | x4 | x4 | x4 | x4 | x4 | x4 | x4 | x4 | x4 | x4 | x4 | x4 | x4 | %180
 x4 | x4 | x4 | x4 | x4 | x4 | x4 | x4 | x4 | x4 | x4 | x4 | x4 | x4 | x4 | x4 | x4 | x4 | x4 | %199
 x4 | x4 | x4 | x4 | x4 | x4 | x4 | x4 |[K:bass] x4 | x4 | x4 |[K:treble] x4 | x4 | x4 || %213
[K:Ab] x4 | x4 | x4 | x4 | x4 | x4 | x4 | x4 | x4 | x4 | x4 | x4 | x4 | x4 | x4 | x4 || x4 |: x4 | %231
 x4 | x4 | x4 | x4 | x4 | x4 | x4 | x4 | x4 | x4 | x4 | x4 | x4 | x4 | x4 | x4 | x4 | x4 | x4 | %250
 x4 | x4 | x4 | x4 | x4 | x4 | x4 | x4 | x4 | x4 |1 x4 | x4 :|2 x4 || x4 | x4 | x4 | x4 | x4 | x4 | %269
 x4 | x4 | x4 | x4 | x4 | x4 | x4 | x4 | x4 |][K:Db][M:4/4] x8 | x8 | x8 | x14 | x10 |[K:E] x12 | %284
 x4 |[K:Gb] x6 | x2 |[M:12/16] x3 | x6 | x6 | x6 | x6 | x6 | x6 | x6 | x6 | x6 | x6 | x6 | x6 | %300
 x6 | x6 | x6 | x6 | x6 | x6 | x3 |[K:Ab][M:6/8] x3 | x6 | x6 | x6 | x6 | x6 | x6 | x6 | x6 | x6 | %317
 x6 | x6 | x6 | x6 | x6 | x6 | x6 | x6 | x6 | x6 | x6 | x6 | x6 | x6 | x6 | x6 | x6 | x6 | x6 | %336
 x6 | x6 | x6 | x6 | x6 | x6 | x6 | x6 | x6 | x6 | x6 | x6 | x6 | x6 | x6 | x6 | x6 | x6 | x6 | %355
 x6 | x6 | x6 | x6 | x6 | x6 | x6 | x6 | x6 | x6 | x6 | x6 | x6 | x6 | x6 | x6 | x6 | x6 | x6 | %374
 x6 | x6 | x6 | x6 | x6 | x6 | x6 | x6 | x6 | x6 | x6 | x6 | x6 | x6 | x6 | x6 | x6 | x6 | x6 | %393
 x6 | x6 | x3 |[M:12/16] x3 | x6 ||[K:Bb] x6 | x6 | x6 | x6 | x6 | x6 | x6 | x6 | x6 | x6 | x6 | %409
 x6 | x6 | x6 | x6 | x6 | x6 | x3 | x3 | x6 | x6 | x3 |[K:G][M:6/8] x3 | x6 | x6 | x6 | x6 | x6 | %426
 x6 | x6 | x6 | x6 | x6 | x6 | x6 | x6 | x6 | x6 | x6 ||[K:Bb] x6 | x6 | x6 | x6 | x6 | x6 | x6 | %444
 x6 | x6 | x6 | x6 | x6 | x6 | x6 | x6 | x6 | x6 | x6 | x6 | x6 | x6 ||[K:Ab] x6 | x6 | x6 | x6 | %462
 x6 | x6 | x6 | x6 | x6 | x6 | x6 | x6 | a3 _g2 e | x6 | x6 | x6 | x6 | f3 f2 f | x6 | x6 | x6 | %479
 x6 | x6 | x6 | x6 | e2 a x2 x | x6 | x6 | x6 | x6 | x6 | x6 |!8va(! x6 | x6 | x6 | x6!8va)! | x6 | %495
 x6 | x6 | x3 |] %498

